tests/fixtures/media-resource-catalog-v1-production/assets/editor-luts/clean-cool-17.cube
TITLE "Visual Multimedia Clean Cool"
LUT_3D_SIZE 5
DOMAIN_MIN 0.0 0.0 0.0
DOMAIN_MAX 1.0 1.0 1.0
0.000000 0.000000 0.000000
0.231393 0.000000 0.000000
0.510386 0.000000 0.000000
0.789379 0.000000 0.000000
1.000000 0.000000 0.000000
0.000000 0.236975 0.000000
0.225314 0.234530 0.000000
0.504307 0.232085 0.000000
0.783300 0.229640 0.000000
1.000000 0.227196 0.000000
0.000000 0.509550 0.000000
0.219234 0.507105 0.000000
0.498227 0.504661 0.000000
0.777220 0.502216 0.000000
1.000000 0.499771 0.000000
0.000000 0.782126 0.000000
0.213155 0.779681 0.000000
0.492148 0.777236 0.000000
0.771141 0.774791 0.000000
1.000000 0.772346 0.000000
0.000000 1.000000 0.000000
0.207076 1.000000 0.000000
0.486069 1.000000 0.000000
0.765062 1.000000 0.000000
1.000000 1.000000 0.000000
0.000000 0.000000 0.262045
0.230779 0.000000 0.258643
0.509772 0.000000 0.255242
0.788765 0.000000 0.251840
1.000000 0.000000 0.248438
0.000000 0.236145 0.250602
0.224700 0.233700 0.247200
0.503693 0.231255 0.243798
0.782686 0.228810 0.240397
1.000000 0.226365 0.236995
0.000000 0.508720 0.239158
0.218621 0.506275 0.235757
0.497614 0.503830 0.232355
0.776607 0.501385 0.228954
1.000000 0.498940 0.225552
0.000000 0.781295 0.227715
0.212542 0.778850 0.224314
0.491534 0.776405 0.220912
0.770527 0.773961 0.217510
1.000000 0.771516 0.214109
0.000000 1.000000 0.216272
0.206462 1.000000 0.212870
0.485455 1.000000 0.209469
0.764448 1.000000 0.206067
1.000000 1.000000 0.202666
0.000000 0.000000 0.541690
0.230165 0.000000 0.538288
0.509158 0.000000 0.534886
0.788151 0.000000 0.531485
1.000000 0.000000 0.528083
0.000000 0.235315 0.530246
0.224086 0.232870 0.526845
0.503079 0.230425 0.523443
0.782072 0.227980 0.520042
1.000000 0.225535 0.516640
0.000000 0.507890 0.518803
0.218007 0.505445 0.515402
0.497000 0.503000 0.512000
0.775993 0.500555 0.508598
1.000000 0.498110 0.505197
0.000000 0.780465 0.507360
0.211928 0.778020 0.503958
0.490921 0.775575 0.500557
0.769914 0.773130 0.497155
1.000000 0.770685 0.493754
0.000000 1.000000 0.495917
0.205849 1.000000 0.492515
0.484842 1.000000 0.489114
0.763834 1.000000 0.485712
1.000000 1.000000 0.482310
0.000000 0.000000 0.821334
0.229552 0.000000 0.817933
0.508545 0.000000 0.814531
0.787538 0.000000 0.811130
1.000000 0.000000 0.807728
0.000000 0.234484 0.809891
0.223473 0.232039 0.806490
0.502465 0.229594 0.803088
0.781458 0.227150 0.799686
1.000000 0.224705 0.796285
0.000000 0.507059 0.798448
0.217393 0.504615 0.795046
0.496386 0.502170 0.791645
0.775379 0.499725 0.788243
1.000000 0.497280 0.784842
0.000000 0.779635 0.787005
0.211314 0.777190 0.783603
0.490307 0.774745 0.780202
0.769300 0.772300 0.776800
1.000000 0.769855 0.773398
0.000000 1.000000 0.775562
0.205235 1.000000 0.772160
0.484228 1.000000 0.768758
0.763221 1.000000 0.765357
1.000000 1.000000 0.761955
0.000000 0.000000 1.000000
0.228938 0.000000 1.000000
0.507931 0.000000 1.000000
0.786924 0.000000 1.000000
1.000000 0.000000 1.000000
0.000000 0.233654 1.000000
0.222859 0.231209 1.000000
0.501852 0.228764 1.000000
0.780845 0.226319 1.000000
1.000000 0.223874 1.000000
0.000000 0.506229 1.000000
0.216780 0.503784 1.000000
0.495773 0.501339 1.000000
0.774766 0.498894 1.000000
1.000000 0.496450 1.000000
0.000000 0.778804 1.000000
0.210700 0.776359 1.000000
0.489693 0.773915 1.000000
0.768686 0.771470 1.000000
1.000000 0.769025 1.000000
0.000000 1.000000 1.000000
0.204621 1.000000 1.000000
0.483614 1.000000 1.000000
0.762607 1.000000 1.000000
1.000000 1.000000 1.000000
