tests/fixtures/media-resource-catalog-v1-production/assets/editor-luts/clean-cool-17.cube
TITLE "Visual Multimedia Clean Cool"
LUT_3D_SIZE 17
DOMAIN_MIN 0.0 0.0 0.0
DOMAIN_MAX 1.0 1.0 1.0
0.000000 0.000000 0.000000
0.022148 0.000000 0.000000
0.091896 0.000000 0.000000
0.161645 0.000000 0.000000
0.231393 0.000000 0.000000
0.301141 0.000000 0.000000
0.370889 0.000000 0.000000
0.440638 0.000000 0.000000
0.510386 0.000000 0.000000
0.580134 0.000000 0.000000
0.649882 0.000000 0.000000
0.719630 0.000000 0.000000
0.789379 0.000000 0.000000
0.859127 0.000000 0.000000
0.928875 0.000000 0.000000
0.998623 0.000000 0.000000
1.000000 0.000000 0.000000
0.000000 0.032544 0.000000
0.020628 0.031933 0.000000
0.090377 0.031321 0.000000
0.160125 0.030710 0.000000
0.229873 0.030099 0.000000
0.299621 0.029488 0.000000
0.369370 0.028876 0.000000
0.439118 0.028265 0.000000
0.508866 0.027654 0.000000
0.578614 0.027043 0.000000
0.648362 0.026432 0.000000
0.718111 0.025820 0.000000
0.787859 0.025209 0.000000
0.857607 0.024598 0.000000
0.927355 0.023987 0.000000
0.997104 0.023375 0.000000
1.000000 0.022764 0.000000
0.000000 0.100688 0.000000
0.019109 0.100076 0.000000
0.088857 0.099465 0.000000
0.158605 0.098854 0.000000
0.228353 0.098243 0.000000
0.298102 0.097631 0.000000
0.367850 0.097020 0.000000
0.437598 0.096409 0.000000
0.507346 0.095798 0.000000
0.577094 0.095187 0.000000
0.646843 0.094575 0.000000
0.716591 0.093964 0.000000
0.786339 0.093353 0.000000
0.856087 0.092742 0.000000
0.925836 0.092130 0.000000
0.995584 0.091519 0.000000
1.000000 0.090908 0.000000
0.000000 0.168831 0.000000
0.017589 0.168220 0.000000
0.087337 0.167609 0.000000
0.157085 0.166998 0.000000
0.226833 0.166386 0.000000
0.296582 0.165775 0.000000
0.366330 0.165164 0.000000
0.436078 0.164553 0.000000
0.505826 0.163942 0.000000
0.575575 0.163330 0.000000
0.645323 0.162719 0.000000
0.715071 0.162108 0.000000
0.784819 0.161497 0.000000
0.854568 0.160885 0.000000
0.924316 0.160274 0.000000
0.994064 0.159663 0.000000
1.000000 0.159052 0.000000
0.000000 0.236975 0.000000
0.016069 0.236364 0.000000
0.085817 0.235753 0.000000
0.155565 0.235142 0.000000
0.225314 0.234530 0.000000
0.295062 0.233919 0.000000
0.364810 0.233308 0.000000
0.434558 0.232697 0.000000
0.504307 0.232085 0.000000
0.574055 0.231474 0.000000
0.643803 0.230863 0.000000
0.713551 0.230252 0.000000
0.783300 0.229640 0.000000
0.853048 0.229029 0.000000
0.922796 0.228418 0.000000
0.992544 0.227807 0.000000
1.000000 0.227196 0.000000
0.000000 0.305119 0.000000
0.014549 0.304508 0.000000
0.084297 0.303897 0.000000
0.154046 0.303285 0.000000
0.223794 0.302674 0.000000
0.293542 0.302063 0.000000
0.363290 0.301452 0.000000
0.433039 0.300840 0.000000
0.502787 0.300229 0.000000
0.572535 0.299618 0.000000
0.642283 0.299007 0.000000
0.712031 0.298396 0.000000
0.781780 0.297784 0.000000
0.851528 0.297173 0.000000
0.921276 0.296562 0.000000
0.991024 0.295951 0.000000
1.000000 0.295339 0.000000
0.000000 0.373263 0.000000
0.013029 0.372652 0.000000
0.082778 0.372040 0.000000
0.152526 0.371429 0.000000
0.222274 0.370818 0.000000
0.292022 0.370207 0.000000
0.361771 0.369595 0.000000
0.431519 0.368984 0.000000
0.501267 0.368373 0.000000
0.571015 0.367762 0.000000
0.640763 0.367151 0.000000
0.710512 0.366539 0.000000
0.780260 0.365928 0.000000
0.850008 0.365317 0.000000
0.919756 0.364706 0.000000
0.989505 0.364094 0.000000
1.000000 0.363483 0.000000
0.000000 0.441407 0.000000
0.011510 0.440795 0.000000
0.081258 0.440184 0.000000
0.151006 0.439573 0.000000
0.220754 0.438962 0.000000
0.290503 0.438350 0.000000
0.360251 0.437739 0.000000
0.429999 0.437128 0.000000
0.499747 0.436517 0.000000
0.569495 0.435906 0.000000
0.639244 0.435294 0.000000
0.708992 0.434683 0.000000
0.778740 0.434072 0.000000
0.848488 0.433461 0.000000
0.918237 0.432849 0.000000
0.987985 0.432238 0.000000
1.000000 0.431627 0.000000
0.000000 0.509550 0.000000
0.009990 0.508939 0.000000
0.079738 0.508328 0.000000
0.149486 0.507717 0.000000
0.219234 0.507105 0.000000
0.288983 0.506494 0.000000
0.358731 0.505883 0.000000
0.428479 0.505272 0.000000
0.498227 0.504661 0.000000
0.567976 0.504049 0.000000
0.637724 0.503438 0.000000
0.707472 0.502827 0.000000
0.777220 0.502216 0.000000
0.846969 0.501604 0.000000
0.916717 0.500993 0.000000
0.986465 0.500382 0.000000
1.000000 0.499771 0.000000
0.000000 0.577694 0.000000
0.008470 0.577083 0.000000
0.078218 0.576472 0.000000
0.147966 0.575861 0.000000
0.217715 0.575249 0.000000
0.287463 0.574638 0.000000
0.357211 0.574027 0.000000
0.426959 0.573416 0.000000
0.496708 0.572804 0.000000
0.566456 0.572193 0.000000
0.636204 0.571582 0.000000
0.705952 0.570971 0.000000
0.775701 0.570359 0.000000
0.845449 0.569748 0.000000
0.915197 0.569137 0.000000
0.984945 0.568526 0.000000
1.000000 0.567915 0.000000
0.000000 0.645838 0.000000
0.006950 0.645227 0.000000
0.076698 0.644616 0.000000
0.146447 0.644004 0.000000
0.216195 0.643393 0.000000
0.285943 0.642782 0.000000
0.355691 0.642171 0.000000
0.425440 0.641559 0.000000
0.495188 0.640948 0.000000
0.564936 0.640337 0.000000
0.634684 0.639726 0.000000
0.704432 0.639115 0.000000
0.774181 0.638503 0.000000
0.843929 0.637892 0.000000
0.913677 0.637281 0.000000
0.983425 0.636670 0.000000
1.000000 0.636058 0.000000
0.000000 0.713982 0.000000
0.005430 0.713371 0.000000
0.075179 0.712759 0.000000
0.144927 0.712148 0.000000
0.214675 0.711537 0.000000
0.284423 0.710926 0.000000
0.354172 0.710314 0.000000
0.423920 0.709703 0.000000
0.493668 0.709092 0.000000
0.563416 0.708481 0.000000
0.633164 0.707870 0.000000
0.702913 0.707258 0.000000
0.772661 0.706647 0.000000
0.842409 0.706036 0.000000
0.912157 0.705425 0.000000
0.981906 0.704813 0.000000
1.000000 0.704202 0.000000
0.000000 0.782126 0.000000
0.003911 0.781514 0.000000
0.073659 0.780903 0.000000
0.143407 0.780292 0.000000
0.213155 0.779681 0.000000
0.282904 0.779069 0.000000
0.352652 0.778458 0.000000
0.422400 0.777847 0.000000
0.492148 0.777236 0.000000
0.561896 0.776625 0.000000
0.631645 0.776013 0.000000
0.701393 0.775402 0.000000
0.771141 0.774791 0.000000
0.840889 0.774180 0.000000
0.910638 0.773568 0.000000
0.980386 0.772957 0.000000
1.000000 0.772346 0.000000
0.000000 0.850269 0.000000
0.002391 0.849658 0.000000
0.072139 0.849047 0.000000
0.141887 0.848436 0.000000
0.211635 0.847824 0.000000
0.281384 0.847213 0.000000
0.351132 0.846602 0.000000
0.420880 0.845991 0.000000
0.490628 0.845380 0.000000
0.560377 0.844768 0.000000
0.630125 0.844157 0.000000
0.699873 0.843546 0.000000
0.769621 0.842935 0.000000
0.839370 0.842323 0.000000
0.909118 0.841712 0.000000
0.978866 0.841101 0.000000
1.000000 0.840490 0.000000
0.000000 0.918413 0.000000
0.000871 0.917802 0.000000
0.070619 0.917191 0.000000
0.140367 0.916580 0.000000
0.210116 0.915968 0.000000
0.279864 0.915357 0.000000
0.349612 0.914746 0.000000
0.419360 0.914135 0.000000
0.489109 0.913523 0.000000
0.558857 0.912912 0.000000
0.628605 0.912301 0.000000
0.698353 0.911690 0.000000
0.768101 0.911079 0.000000
0.837850 0.910467 0.000000
0.907598 0.909856 0.000000
0.977346 0.909245 0.000000
1.000000 0.908634 0.000000
0.000000 0.986557 0.000000
0.000000 0.985946 0.000000
0.069099 0.985335 0.000000
0.138848 0.984723 0.000000
0.208596 0.984112 0.000000
0.278344 0.983501 0.000000
0.348092 0.982890 0.000000
0.417841 0.982278 0.000000
0.487589 0.981667 0.000000
0.557337 0.981056 0.000000
0.627085 0.980445 0.000000
0.696833 0.979834 0.000000
0.766582 0.979222 0.000000
0.836330 0.978611 0.000000
0.906078 0.978000 0.000000
0.975826 0.977389 0.000000
1.000000 0.976777 0.000000
0.000000 1.000000 0.000000
0.000000 1.000000 0.000000
0.067580 1.000000 0.000000
0.137328 1.000000 0.000000
0.207076 1.000000 0.000000
0.276824 1.000000 0.000000
0.346573 1.000000 0.000000
0.416321 1.000000 0.000000
0.486069 1.000000 0.000000
0.555817 1.000000 0.000000
0.625565 1.000000 0.000000
0.695314 1.000000 0.000000
0.765062 1.000000 0.000000
0.834810 1.000000 0.000000
0.904558 1.000000 0.000000
0.974307 1.000000 0.000000
1.000000 1.000000 0.000000
0.000000 0.000000 0.052311
0.021995 0.000000 0.051461
0.091743 0.000000 0.050610
0.161491 0.000000 0.049760
0.231239 0.000000 0.048910
0.300988 0.000000 0.048059
0.370736 0.000000 0.047209
0.440484 0.000000 0.046358
0.510232 0.000000 0.045508
0.579981 0.000000 0.044658
0.649729 0.000000 0.043807
0.719477 0.000000 0.042957
0.789225 0.000000 0.042106
0.858974 0.000000 0.041256
0.928722 0.000000 0.040406
0.998470 0.000000 0.039555
1.000000 0.000000 0.038705
0.000000 0.032336 0.049450
0.020475 0.031725 0.048600
0.090223 0.031114 0.047750
0.159971 0.030503 0.046899
0.229720 0.029891 0.046049
0.299468 0.029280 0.045198
0.369216 0.028669 0.044348
0.438964 0.028058 0.043498
0.508713 0.027446 0.042647
0.578461 0.026835 0.041797
0.648209 0.026224 0.040946
0.717957 0.025613 0.040096
0.787705 0.025002 0.039246
0.857454 0.024390 0.038395
0.927202 0.023779 0.037545
0.996950 0.023168 0.036694
1.000000 0.022557 0.035844
0.000000 0.100480 0.046590
0.018955 0.099869 0.045739
0.088703 0.099258 0.044889
0.158452 0.098646 0.044038
0.228200 0.098035 0.043188
0.297948 0.097424 0.042338
0.367696 0.096813 0.041487
0.437445 0.096201 0.040637
0.507193 0.095590 0.039786
0.576941 0.094979 0.038936
0.646689 0.094368 0.038086
0.716437 0.093757 0.037235
0.786186 0.093145 0.036385
0.855934 0.092534 0.035534
0.925682 0.091923 0.034684
0.995430 0.091312 0.033834
1.000000 0.090700 0.032983
0.000000 0.168624 0.043729
0.017435 0.168013 0.042878
0.087184 0.167401 0.042028
0.156932 0.166790 0.041178
0.226680 0.166179 0.040327
0.296428 0.165568 0.039477
0.366177 0.164956 0.038626
0.435925 0.164345 0.037776
0.505673 0.163734 0.036926
0.575421 0.163123 0.036075
0.645169 0.162512 0.035225
0.714918 0.161900 0.034374
0.784666 0.161289 0.033524
0.854414 0.160678 0.032674
0.924162 0.160067 0.031823
0.993911 0.159455 0.030973
1.000000 0.158844 0.030122
0.000000 0.236768 0.040868
0.015916 0.236156 0.040018
0.085664 0.235545 0.039167
0.155412 0.234934 0.038317
0.225160 0.234323 0.037466
0.294909 0.233711 0.036616
0.364657 0.233100 0.035766
0.434405 0.232489 0.034915
0.504153 0.231878 0.034065
0.573901 0.231267 0.033214
0.643650 0.230655 0.032364
0.713398 0.230044 0.031514
0.783146 0.229433 0.030663
0.852894 0.228822 0.029813
0.922643 0.228210 0.028962
0.992391 0.227599 0.028112
1.000000 0.226988 0.027262
0.000000 0.304911 0.038007
0.014396 0.304300 0.037157
0.084144 0.303689 0.036306
0.153892 0.303078 0.035456
0.223640 0.302467 0.034606
0.293389 0.301855 0.033755
0.363137 0.301244 0.032905
0.432885 0.300633 0.032054
0.502633 0.300022 0.031204
0.572382 0.299410 0.030354
0.642130 0.298799 0.029503
0.711878 0.298188 0.028653
0.781626 0.297577 0.027802
0.851375 0.296965 0.026952
0.921123 0.296354 0.026102
0.990871 0.295743 0.025251
1.000000 0.295132 0.024401
0.000000 0.373055 0.035146
0.012876 0.372444 0.034296
0.082624 0.371833 0.033446
0.152372 0.371222 0.032595
0.222121 0.370610 0.031745
0.291869 0.369999 0.030894
0.361617 0.369388 0.030044
0.431365 0.368777 0.029194
0.501114 0.368165 0.028343
0.570862 0.367554 0.027493
0.640610 0.366943 0.026642
0.710358 0.366332 0.025792
0.780106 0.365721 0.024942
0.849855 0.365109 0.024091
0.919603 0.364498 0.023241
0.989351 0.363887 0.022390
1.000000 0.363276 0.021540
0.000000 0.441199 0.032286
0.011356 0.440588 0.031435
0.081104 0.439977 0.030585
0.150853 0.439365 0.029734
0.220601 0.438754 0.028884
0.290349 0.438143 0.028034
0.360097 0.437532 0.027183
0.429846 0.436920 0.026333
0.499594 0.436309 0.025482
0.569342 0.435698 0.024632
0.639090 0.435087 0.023782
0.708838 0.434476 0.022931
0.778587 0.433864 0.022081
0.848335 0.433253 0.021230
0.918083 0.432642 0.020380
0.987831 0.432031 0.019530
1.000000 0.431419 0.018679
0.000000 0.509343 0.029425
0.009836 0.508732 0.028574
0.079585 0.508120 0.027724
0.149333 0.507509 0.026874
0.219081 0.506898 0.026023
0.288829 0.506287 0.025173
0.358578 0.505675 0.024322
0.428326 0.505064 0.023472
0.498074 0.504453 0.022622
0.567822 0.503842 0.021771
0.637570 0.503231 0.020921
0.707319 0.502619 0.020070
0.777067 0.502008 0.019220
0.846815 0.501397 0.018370
0.916563 0.500786 0.017519
0.986312 0.500174 0.016669
1.000000 0.499563 0.015818
0.000000 0.577487 0.026564
0.008317 0.576875 0.025714
0.078065 0.576264 0.024863
0.147813 0.575653 0.024013
0.217561 0.575042 0.023162
0.287309 0.574431 0.022312
0.357058 0.573819 0.021462
0.426806 0.573208 0.020611
0.496554 0.572597 0.019761
0.566302 0.571986 0.018910
0.636051 0.571374 0.018060
0.705799 0.570763 0.017210
0.775547 0.570152 0.016359
0.845295 0.569541 0.015509
0.915044 0.568929 0.014658
0.984792 0.568318 0.013808
1.000000 0.567707 0.012958
0.000000 0.645630 0.023703
0.006797 0.645019 0.022853
0.076545 0.644408 0.022002
0.146293 0.643797 0.021152
0.216041 0.643186 0.020302
0.285790 0.642574 0.019451
0.355538 0.641963 0.018601
0.425286 0.641352 0.017750
0.495034 0.640741 0.016900
0.564783 0.640129 0.016050
0.634531 0.639518 0.015199
0.704279 0.638907 0.014349
0.774027 0.638296 0.013498
0.843776 0.637685 0.012648
0.913524 0.637073 0.011798
0.983272 0.636462 0.010947
1.000000 0.635851 0.010097
0.000000 0.713774 0.020842
0.005277 0.713163 0.019992
0.075025 0.712552 0.019142
0.144773 0.711941 0.018291
0.214522 0.711329 0.017441
0.284270 0.710718 0.016590
0.354018 0.710107 0.015740
0.423766 0.709496 0.014890
0.493515 0.708884 0.014039
0.563263 0.708273 0.013189
0.633011 0.707662 0.012338
0.702759 0.707051 0.011488
0.772507 0.706440 0.010638
0.842256 0.705828 0.009787
0.912004 0.705217 0.008937
0.981752 0.704606 0.008086
1.000000 0.703995 0.007236
0.000000 0.781918 0.017982
0.003757 0.781307 0.017131
0.073505 0.780696 0.016281
0.143254 0.780084 0.015430
0.213002 0.779473 0.014580
0.282750 0.778862 0.013730
0.352498 0.778251 0.012879
0.422247 0.777639 0.012029
0.491995 0.777028 0.011178
0.561743 0.776417 0.010328
0.631491 0.775806 0.009478
0.701239 0.775195 0.008627
0.770988 0.774583 0.007777
0.840736 0.773972 0.006926
0.910484 0.773361 0.006076
0.980232 0.772750 0.005226
1.000000 0.772138 0.004375
0.000000 0.850062 0.015121
0.002237 0.849451 0.014270
0.071986 0.848839 0.013420
0.141734 0.848228 0.012570
0.211482 0.847617 0.011719
0.281230 0.847006 0.010869
0.350979 0.846394 0.010018
0.420727 0.845783 0.009168
0.490475 0.845172 0.008318
0.560223 0.844561 0.007467
0.629971 0.843950 0.006617
0.699720 0.843338 0.005766
0.769468 0.842727 0.004916
0.839216 0.842116 0.004066
0.908964 0.841505 0.003215
0.978713 0.840893 0.002365
1.000000 0.840282 0.001514
0.000000 0.918206 0.012260
0.000718 0.917594 0.011410
0.070466 0.916983 0.010559
0.140214 0.916372 0.009709
0.209962 0.915761 0.008858
0.279710 0.915149 0.008008
0.349459 0.914538 0.007158
0.419207 0.913927 0.006307
0.488955 0.913316 0.005457
0.558703 0.912705 0.004606
0.628452 0.912093 0.003756
0.698200 0.911482 0.002906
0.767948 0.910871 0.002055
0.837696 0.910260 0.001205
0.907445 0.909648 0.000354
0.977193 0.909037 0.000000
1.000000 0.908426 0.000000
0.000000 0.986349 0.009399
0.000000 0.985738 0.008549
0.068946 0.985127 0.007698
0.138694 0.984516 0.006848
0.208442 0.983905 0.005998
0.278191 0.983293 0.005147
0.347939 0.982682 0.004297
0.417687 0.982071 0.003446
0.487435 0.981460 0.002596
0.557184 0.980848 0.001746
0.626932 0.980237 0.000895
0.696680 0.979626 0.000045
0.766428 0.979015 0.000000
0.836176 0.978403 0.000000
0.905925 0.977792 0.000000
0.975673 0.977181 0.000000
1.000000 0.976570 0.000000
0.000000 1.000000 0.006538
0.000000 1.000000 0.005688
0.067426 1.000000 0.004838
0.137174 1.000000 0.003987
0.206923 1.000000 0.003137
0.276671 1.000000 0.002286
0.346419 1.000000 0.001436
0.416167 1.000000 0.000586
0.485916 1.000000 0.000000
0.555664 1.000000 0.000000
0.625412 1.000000 0.000000
0.695160 1.000000 0.000000
0.764908 1.000000 0.000000
0.834657 1.000000 0.000000
0.904405 1.000000 0.000000
0.974153 1.000000 0.000000
1.000000 1.000000 0.000000
0.000000 0.000000 0.122222
0.021841 0.000000 0.121372
0.091590 0.000000 0.120522
0.161338 0.000000 0.119671
0.231086 0.000000 0.118821
0.300834 0.000000 0.117970
0.370582 0.000000 0.117120
0.440331 0.000000 0.116270
0.510079 0.000000 0.115419
0.579827 0.000000 0.114569
0.649575 0.000000 0.113718
0.719324 0.000000 0.112868
0.789072 0.000000 0.112018
0.858820 0.000000 0.111167
0.928568 0.000000 0.110317
0.998317 0.000000 0.109466
1.000000 0.000000 0.108616
0.000000 0.032129 0.119362
0.020322 0.031517 0.118511
0.090070 0.030906 0.117661
0.159818 0.030295 0.116810
0.229566 0.029684 0.115960
0.299314 0.029073 0.115110
0.369063 0.028461 0.114259
0.438811 0.027850 0.113409
0.508559 0.027239 0.112558
0.578307 0.026628 0.111708
0.648056 0.026016 0.110858
0.717804 0.025405 0.110007
0.787552 0.024794 0.109157
0.857300 0.024183 0.108306
0.927049 0.023571 0.107456
0.996797 0.022960 0.106606
1.000000 0.022349 0.105755
0.000000 0.100272 0.116501
0.018802 0.099661 0.115650
0.088550 0.099050 0.114800
0.158298 0.098439 0.113950
0.228046 0.097828 0.113099
0.297795 0.097216 0.112249
0.367543 0.096605 0.111398
0.437291 0.095994 0.110548
0.507039 0.095383 0.109698
0.576788 0.094771 0.108847
0.646536 0.094160 0.107997
0.716284 0.093549 0.107146
0.786032 0.092938 0.106296
0.855780 0.092327 0.105446
0.925529 0.091715 0.104595
0.995277 0.091104 0.103745
1.000000 0.090493 0.102894
0.000000 0.168416 0.113640
0.017282 0.167805 0.112790
0.087030 0.167194 0.111939
0.156778 0.166583 0.111089
0.226527 0.165971 0.110238
0.296275 0.165360 0.109388
0.366023 0.164749 0.108538
0.435771 0.164138 0.107687
0.505520 0.163526 0.106837
0.575268 0.162915 0.105986
0.645016 0.162304 0.105136
0.714764 0.161693 0.104286
0.784512 0.161082 0.103435
0.854261 0.160470 0.102585
0.924009 0.159859 0.101734
0.993757 0.159248 0.100884
1.000000 0.158637 0.100034
0.000000 0.236560 0.110779
0.015762 0.235949 0.109929
0.085510 0.235338 0.109078
0.155259 0.234726 0.108228
0.225007 0.234115 0.107378
0.294755 0.233504 0.106527
0.364503 0.232893 0.105677
0.434252 0.232281 0.104826
0.504000 0.231670 0.103976
0.573748 0.231059 0.103126
0.643496 0.230448 0.102275
0.713244 0.229837 0.101425
0.782993 0.229225 0.100574
0.852741 0.228614 0.099724
0.922489 0.228003 0.098874
0.992237 0.227392 0.098023
1.000000 0.226780 0.097173
0.000000 0.304704 0.107918
0.014242 0.304093 0.107068
0.083991 0.303481 0.106218
0.153739 0.302870 0.105367
0.223487 0.302259 0.104517
0.293235 0.301648 0.103666
0.362984 0.301036 0.102816
0.432732 0.300425 0.101966
0.502480 0.299814 0.101115
0.572228 0.299203 0.100265
0.641976 0.298592 0.099414
0.711725 0.297980 0.098564
0.781473 0.297369 0.097714
0.851221 0.296758 0.096863
0.920969 0.296147 0.096013
0.990718 0.295535 0.095162
1.000000 0.294924 0.094312
0.000000 0.372848 0.105058
0.012723 0.372236 0.104207
0.082471 0.371625 0.103357
0.152219 0.371014 0.102506
0.221967 0.370403 0.101656
0.291715 0.369792 0.100806
0.361464 0.369180 0.099955
0.431212 0.368569 0.099105
0.500960 0.367958 0.098254
0.570708 0.367347 0.097404
0.640457 0.366735 0.096554
0.710205 0.366124 0.095703
0.779953 0.365513 0.094853
0.849701 0.364902 0.094002
0.919450 0.364291 0.093152
0.989198 0.363679 0.092302
1.000000 0.363068 0.091451
0.000000 0.440991 0.102197
0.011203 0.440380 0.101346
0.080951 0.439769 0.100496
0.150699 0.439158 0.099646
0.220447 0.438547 0.098795
0.290196 0.437935 0.097945
0.359944 0.437324 0.097094
0.429692 0.436713 0.096244
0.499440 0.436102 0.095394
0.569189 0.435490 0.094543
0.638937 0.434879 0.093693
0.708685 0.434268 0.092842
0.778433 0.433657 0.091992
0.848181 0.433046 0.091142
0.917930 0.432434 0.090291
0.987678 0.431823 0.089441
1.000000 0.431212 0.088590
0.000000 0.509135 0.099336
0.009683 0.508524 0.098486
0.079431 0.507913 0.097635
0.149179 0.507302 0.096785
0.218928 0.506690 0.095934
0.288676 0.506079 0.095084
0.358424 0.505468 0.094234
0.428172 0.504857 0.093383
0.497921 0.504245 0.092533
0.567669 0.503634 0.091682
0.637417 0.503023 0.090832
0.707165 0.502412 0.089982
0.776913 0.501801 0.089131
0.846662 0.501189 0.088281
0.916410 0.500578 0.087430
0.986158 0.499967 0.086580
1.000000 0.499356 0.085730
0.000000 0.577279 0.096475
0.008163 0.576668 0.095625
0.077911 0.576057 0.094774
0.147660 0.575445 0.093924
0.217408 0.574834 0.093074
0.287156 0.574223 0.092223
0.356904 0.573612 0.091373
0.426653 0.573000 0.090522
0.496401 0.572389 0.089672
0.566149 0.571778 0.088822
0.635897 0.571167 0.087971
0.705645 0.570556 0.087121
0.775394 0.569944 0.086270
0.845142 0.569333 0.085420
0.914890 0.568722 0.084570
0.984638 0.568111 0.083719
1.000000 0.567499 0.082869
0.000000 0.645423 0.093614
0.006643 0.644812 0.092764
0.076392 0.644200 0.091914
0.146140 0.643589 0.091063
0.215888 0.642978 0.090213
0.285636 0.642367 0.089362
0.355384 0.641756 0.088512
0.425133 0.641144 0.087662
0.494881 0.640533 0.086811
0.564629 0.639922 0.085961
0.634377 0.639311 0.085110
0.704126 0.638699 0.084260
0.773874 0.638088 0.083410
0.843622 0.637477 0.082559
0.913370 0.636866 0.081709
0.983119 0.636254 0.080858
1.000000 0.635643 0.080008
0.000000 0.713567 0.090754
0.005124 0.712955 0.089903
0.074872 0.712344 0.089053
0.144620 0.711733 0.088202
0.214368 0.711122 0.087352
0.284116 0.710511 0.086502
0.353865 0.709899 0.085651
0.423613 0.709288 0.084801
0.493361 0.708677 0.083950
0.563109 0.708066 0.083100
0.632858 0.707454 0.082250
0.702606 0.706843 0.081399
0.772354 0.706232 0.080549
0.842102 0.705621 0.079698
0.911851 0.705010 0.078848
0.981599 0.704398 0.077998
1.000000 0.703787 0.077147
0.000000 0.781710 0.087893
0.003604 0.781099 0.087042
0.073352 0.780488 0.086192
0.143100 0.779877 0.085342
0.212848 0.779266 0.084491
0.282597 0.778654 0.083641
0.352345 0.778043 0.082790
0.422093 0.777432 0.081940
0.491841 0.776821 0.081090
0.561590 0.776209 0.080239
0.631338 0.775598 0.079389
0.701086 0.774987 0.078538
0.770834 0.774376 0.077688
0.840582 0.773765 0.076838
0.910331 0.773153 0.075987
0.980079 0.772542 0.075137
1.000000 0.771931 0.074286
0.000000 0.849854 0.085032
0.002084 0.849243 0.084182
0.071832 0.848632 0.083331
0.141580 0.848021 0.082481
0.211329 0.847409 0.081630
0.281077 0.846798 0.080780
0.350825 0.846187 0.079930
0.420573 0.845576 0.079079
0.490322 0.844964 0.078229
0.560070 0.844353 0.077378
0.629818 0.843742 0.076528
0.699566 0.843131 0.075678
0.769314 0.842520 0.074827
0.839063 0.841908 0.073977
0.908811 0.841297 0.073126
0.978559 0.840686 0.072276
1.000000 0.840075 0.071426
0.000000 0.917998 0.082171
0.000564 0.917387 0.081321
0.070312 0.916776 0.080470
0.140061 0.916164 0.079620
0.209809 0.915553 0.078770
0.279557 0.914942 0.077919
0.349305 0.914331 0.077069
0.419054 0.913719 0.076218
0.488802 0.913108 0.075368
0.558550 0.912497 0.074518
0.628298 0.911886 0.073667
0.698046 0.911275 0.072817
0.767795 0.910663 0.071966
0.837543 0.910052 0.071116
0.907291 0.909441 0.070266
0.977039 0.908830 0.069415
1.000000 0.908218 0.068565
0.000000 0.986142 0.079310
0.000000 0.985531 0.078460
0.068793 0.984919 0.077610
0.138541 0.984308 0.076759
0.208289 0.983697 0.075909
0.278037 0.983086 0.075058
0.347785 0.982475 0.074208
0.417534 0.981863 0.073358
0.487282 0.981252 0.072507
0.557030 0.980641 0.071657
0.626778 0.980030 0.070806
0.696527 0.979418 0.069956
0.766275 0.978807 0.069106
0.836023 0.978196 0.068255
0.905771 0.977585 0.067405
0.975520 0.976973 0.066554
1.000000 0.976362 0.065704
0.000000 1.000000 0.076450
0.000000 1.000000 0.075599
0.067273 1.000000 0.074749
0.137021 1.000000 0.073898
0.206769 1.000000 0.073048
0.276517 1.000000 0.072198
0.346266 1.000000 0.071347
0.416014 1.000000 0.070497
0.485762 1.000000 0.069646
0.555510 1.000000 0.068796
0.625259 1.000000 0.067946
0.695007 1.000000 0.067095
0.764755 1.000000 0.066245
0.834503 1.000000 0.065394
0.904251 1.000000 0.064544
0.974000 1.000000 0.063694
1.000000 1.000000 0.062843
0.000000 0.000000 0.192134
0.021688 0.000000 0.191283
0.091436 0.000000 0.190433
0.161184 0.000000 0.189582
0.230933 0.000000 0.188732
0.300681 0.000000 0.187882
0.370429 0.000000 0.187031
0.440177 0.000000 0.186181
0.509926 0.000000 0.185330
0.579674 0.000000 0.184480
0.649422 0.000000 0.183630
0.719170 0.000000 0.182779
0.788918 0.000000 0.181929
0.858667 0.000000 0.181078
0.928415 0.000000 0.180228
0.998163 0.000000 0.179378
1.000000 0.000000 0.178527
0.000000 0.031921 0.189273
