tests/fixtures/media-resource-catalog-v1-production/assets/editor-luts/clean-cool-17.cube
TITLE "Visual Multimedia Clean Cool"
LUT_3D_SIZE 9
DOMAIN_MIN 0.0 0.0 0.0
DOMAIN_MAX 1.0 1.0 1.0
0.000000 0.000000 0.000000
0.091896 0.000000 0.000000
0.231393 0.000000 0.000000
0.370889 0.000000 0.000000
0.510386 0.000000 0.000000
0.649882 0.000000 0.000000
0.789379 0.000000 0.000000
0.928875 0.000000 0.000000
1.000000 0.000000 0.000000
0.000000 0.100688 0.000000
0.088857 0.099465 0.000000
0.228353 0.098243 0.000000
0.367850 0.097020 0.000000
0.507346 0.095798 0.000000
0.646843 0.094575 0.000000
0.786339 0.093353 0.000000
0.925836 0.092130 0.000000
1.000000 0.090908 0.000000
0.000000 0.236975 0.000000
0.085817 0.235753 0.000000
0.225314 0.234530 0.000000
0.364810 0.233308 0.000000
0.504307 0.232085 0.000000
0.643803 0.230863 0.000000
0.783300 0.229640 0.000000
0.922796 0.228418 0.000000
1.000000 0.227196 0.000000
0.000000 0.373263 0.000000
0.082778 0.372040 0.000000
0.222274 0.370818 0.000000
0.361771 0.369595 0.000000
0.501267 0.368373 0.000000
0.640763 0.367151 0.000000
0.780260 0.365928 0.000000
0.919756 0.364706 0.000000
1.000000 0.363483 0.000000
0.000000 0.509550 0.000000
0.079738 0.508328 0.000000
0.219234 0.507105 0.000000
0.358731 0.505883 0.000000
0.498227 0.504661 0.000000
0.637724 0.503438 0.000000
0.777220 0.502216 0.000000
0.916717 0.500993 0.000000
1.000000 0.499771 0.000000
0.000000 0.645838 0.000000
0.076698 0.644616 0.000000
0.216195 0.643393 0.000000
0.355691 0.642171 0.000000
0.495188 0.640948 0.000000
0.634684 0.639726 0.000000
0.774181 0.638503 0.000000
0.913677 0.637281 0.000000
1.000000 0.636058 0.000000
0.000000 0.782126 0.000000
0.073659 0.780903 0.000000
0.213155 0.779681 0.000000
0.352652 0.778458 0.000000
0.492148 0.777236 0.000000
0.631645 0.776013 0.000000
0.771141 0.774791 0.000000
0.910638 0.773568 0.000000
1.000000 0.772346 0.000000
0.000000 0.918413 0.000000
0.070619 0.917191 0.000000
0.210116 0.915968 0.000000
0.349612 0.914746 0.000000
0.489109 0.913523 0.000000
0.628605 0.912301 0.000000
0.768101 0.911079 0.000000
0.907598 0.909856 0.000000
1.000000 0.908634 0.000000
0.000000 1.000000 0.000000
0.067580 1.000000 0.000000
0.207076 1.000000 0.000000
0.346573 1.000000 0.000000
0.486069 1.000000 0.000000
0.625565 1.000000 0.000000
0.765062 1.000000 0.000000
0.904558 1.000000 0.000000
1.000000 1.000000 0.000000
0.000000 0.000000 0.122222
0.091590 0.000000 0.120522
0.231086 0.000000 0.118821
0.370582 0.000000 0.117120
0.510079 0.000000 0.115419
0.649575 0.000000 0.113718
0.789072 0.000000 0.112018
0.928568 0.000000 0.110317
1.000000 0.000000 0.108616
0.000000 0.100272 0.116501
0.088550 0.099050 0.114800
0.228046 0.097828 0.113099
0.367543 0.096605 0.111398
0.507039 0.095383 0.109698
0.646536 0.094160 0.107997
0.786032 0.092938 0.106296
0.925529 0.091715 0.104595
1.000000 0.090493 0.102894
0.000000 0.236560 0.110779
0.085510 0.235338 0.109078
0.225007 0.234115 0.107378
0.364503 0.232893 0.105677
0.504000 0.231670 0.103976
0.643496 0.230448 0.102275
0.782993 0.229225 0.100574
0.922489 0.228003 0.098874
1.000000 0.226780 0.097173
0.000000 0.372848 0.105058
0.082471 0.371625 0.103357
0.221967 0.370403 0.101656
0.361464 0.369180 0.099955
0.500960 0.367958 0.098254
0.640457 0.366735 0.096554
0.779953 0.365513 0.094853
0.919450 0.364291 0.093152
1.000000 0.363068 0.091451
0.000000 0.509135 0.099336
0.079431 0.507913 0.097635
0.218928 0.506690 0.095934
0.358424 0.505468 0.094234
0.497921 0.504245 0.092533
0.637417 0.503023 0.090832
0.776913 0.501801 0.089131
0.916410 0.500578 0.087430
1.000000 0.499356 0.085730
0.000000 0.645423 0.093614
0.076392 0.644200 0.091914
0.215888 0.642978 0.090213
0.355384 0.641756 0.088512
0.494881 0.640533 0.086811
0.634377 0.639311 0.085110
0.773874 0.638088 0.083410
0.913370 0.636866 0.081709
1.000000 0.635643 0.080008
0.000000 0.781710 0.087893
0.073352 0.780488 0.086192
0.212848 0.779266 0.084491
0.352345 0.778043 0.082790
0.491841 0.776821 0.081090
0.631338 0.775598 0.079389
0.770834 0.774376 0.077688
0.910331 0.773153 0.075987
1.000000 0.771931 0.074286
0.000000 0.917998 0.082171
0.070312 0.916776 0.080470
0.209809 0.915553 0.078770
0.349305 0.914331 0.077069
0.488802 0.913108 0.075368
0.628298 0.911886 0.073667
0.767795 0.910663 0.071966
0.907291 0.909441 0.070266
1.000000 0.908218 0.068565
0.000000 1.000000 0.076450
0.067273 1.000000 0.074749
0.206769 1.000000 0.073048
0.346266 1.000000 0.071347
0.485762 1.000000 0.069646
0.625259 1.000000 0.067946
0.764755 1.000000 0.066245
0.904251 1.000000 0.064544
1.000000 1.000000 0.062843
0.000000 0.000000 0.262045
0.091283 0.000000 0.260344
0.230779 0.000000 0.258643
0.370276 0.000000 0.256942
0.509772 0.000000 0.255242
0.649269 0.000000 0.253541
0.788765 0.000000 0.251840
0.928261 0.000000 0.250139
1.000000 0.000000 0.248438
0.000000 0.099857 0.256323
0.088243 0.098635 0.254622
0.227740 0.097412 0.252922
0.367236 0.096190 0.251221
0.506732 0.094967 0.249520
0.646229 0.093745 0.247819
0.785725 0.092523 0.246118
0.925222 0.091300 0.244418
1.000000 0.090078 0.242717
0.000000 0.236145 0.250602
0.085204 0.234922 0.248901
0.224700 0.233700 0.247200
0.364196 0.232478 0.245499
0.503693 0.231255 0.243798
0.643189 0.230033 0.242098
0.782686 0.228810 0.240397
0.922182 0.227588 0.238696
1.000000 0.226365 0.236995
0.000000 0.372432 0.244880
0.082164 0.371210 0.243179
0.221660 0.369988 0.241478
0.361157 0.368765 0.239778
0.500653 0.367543 0.238077
0.640150 0.366320 0.236376
0.779646 0.365098 0.234675
0.919143 0.363875 0.232974
1.000000 0.362653 0.231274
0.000000 0.508720 0.239158
0.079124 0.507498 0.237458
0.218621 0.506275 0.235757
0.358117 0.505053 0.234056
0.497614 0.503830 0.232355
0.637110 0.502608 0.230654
0.776607 0.501385 0.228954
0.916103 0.500163 0.227253
1.000000 0.498940 0.225552
0.000000 0.645008 0.233437
0.076085 0.643785 0.231736
0.215581 0.642563 0.230035
0.355078 0.641340 0.228334
0.494574 0.640118 0.226634
0.634071 0.638895 0.224933
0.773567 0.637673 0.223232
0.913063 0.636451 0.221531
1.000000 0.635228 0.219830
0.000000 0.781295 0.227715
0.073045 0.780073 0.226014
0.212542 0.778850 0.224314
0.352038 0.777628 0.222613
0.491534 0.776405 0.220912
0.631031 0.775183 0.219211
0.770527 0.773961 0.217510
0.910024 0.772738 0.215810
1.000000 0.771516 0.214109
0.000000 0.917583 0.221994
0.070006 0.916360 0.220293
0.209502 0.915138 0.218592
0.348998 0.913916 0.216891
0.488495 0.912693 0.215190
0.627991 0.911471 0.213490
0.767488 0.910248 0.211789
0.906984 0.909026 0.210088
1.000000 0.907803 0.208387
0.000000 1.000000 0.216272
0.066966 1.000000 0.214571
0.206462 1.000000 0.212870
0.345959 1.000000 0.211170
0.485455 1.000000 0.209469
0.624952 1.000000 0.207768
0.764448 1.000000 0.206067
0.903945 1.000000 0.204366
1.000000 1.000000 0.202666
0.000000 0.000000 0.401867
0.090976 0.000000 0.400166
0.230472 0.000000 0.398466
0.369969 0.000000 0.396765
0.509465 0.000000 0.395064
0.648962 0.000000 0.393363
0.788458 0.000000 0.391662
0.927955 0.000000 0.389962
1.000000 0.000000 0.388261
0.000000 0.099442 0.396146
0.087936 0.098220 0.394445
0.227433 0.096997 0.392744
0.366929 0.095775 0.391043
0.506426 0.094552 0.389342
0.645922 0.093330 0.387642
0.785419 0.092107 0.385941
0.924915 0.090885 0.384240
1.000000 0.089663 0.382539
0.000000 0.235730 0.390424
0.084897 0.234507 0.388723
0.224393 0.233285 0.387022
0.363890 0.232062 0.385322
0.503386 0.230840 0.383621
0.642883 0.229617 0.381920
0.782379 0.228395 0.380219
0.921875 0.227173 0.378518
1.000000 0.225950 0.376818
0.000000 0.372017 0.384702
0.081857 0.370795 0.383002
0.221354 0.369572 0.381301
0.360850 0.368350 0.379600
0.500346 0.367128 0.377899
0.639843 0.365905 0.376198
0.779339 0.364683 0.374498
0.918836 0.363460 0.372797
1.000000 0.362238 0.371096
0.000000 0.508305 0.378981
0.078817 0.507082 0.377280
0.218314 0.505860 0.375579
0.357810 0.504638 0.373878
0.497307 0.503415 0.372178
0.636803 0.502193 0.370477
0.776300 0.500970 0.368776
0.915796 0.499748 0.367075
1.000000 0.498525 0.365374
0.000000 0.644593 0.373259
0.075778 0.643370 0.371558
0.215274 0.642148 0.369858
0.354771 0.640925 0.368157
0.494267 0.639703 0.366456
0.633764 0.638480 0.364755
0.773260 0.637258 0.363054
0.912757 0.636035 0.361354
1.000000 0.634813 0.359653
0.000000 0.780880 0.367538
0.072738 0.779658 0.365837
0.212235 0.778435 0.364136
0.351731 0.777213 0.362435
0.491228 0.775990 0.360734
0.630724 0.774768 0.359034
0.770221 0.773545 0.357333
0.909717 0.772323 0.355632
1.000000 0.771101 0.353931
0.000000 0.917168 0.361816
0.069699 0.915945 0.360115
0.209195 0.914723 0.358414
0.348692 0.913500 0.356714
0.488188 0.912278 0.355013
0.627684 0.911056 0.353312
0.767181 0.909833 0.351611
0.906677 0.908611 0.349910
1.000000 0.907388 0.348210
0.000000 1.000000 0.356094
0.066659 1.000000 0.354394
0.206156 1.000000 0.352693
0.345652 1.000000 0.350992
0.485148 1.000000 0.349291
0.624645 1.000000 0.347590
0.764141 1.000000 0.345890
0.903638 1.000000 0.344189
1.000000 1.000000 0.342488
0.000000 0.000000 0.541690
0.090669 0.000000 0.539989
0.230165 0.000000 0.538288
0.369662 0.000000 0.536587
0.509158 0.000000 0.534886
0.648655 0.000000 0.533186
0.788151 0.000000 0.531485
0.927648 0.000000 0.529784
1.000000 0.000000 0.528083
0.000000 0.099027 0.535968
0.087629 0.097805 0.534267
0.227126 0.096582 0.532566
0.366622 0.095360 0.530866
0.506119 0.094137 0.529165
0.645615 0.092915 0.527464
0.785112 0.091692 0.525763
0.924608 0.090470 0.524062
1.000000 0.089247 0.522362
0.000000 0.235315 0.530246
0.084590 0.234092 0.528546
0.224086 0.232870 0.526845
0.363583 0.231647 0.525144
0.503079 0.230425 0.523443
0.642576 0.229202 0.521742
0.782072 0.227980 0.520042
0.921569 0.226757 0.518341
1.000000 0.225535 0.516640
0.000000 0.371602 0.524525
0.081550 0.370380 0.522824
0.221047 0.369157 0.521123
0.360543 0.367935 0.519422
0.500040 0.366712 0.517722
0.639536 0.365490 0.516021
0.779033 0.364267 0.514320
0.918529 0.363045 0.512619
1.000000 0.361823 0.510918
0.000000 0.507890 0.518803
0.078511 0.506667 0.517102
0.218007 0.505445 0.515402
0.357504 0.504222 0.513701
0.497000 0.503000 0.512000
0.636496 0.501778 0.510299
0.775993 0.500555 0.508598
0.915489 0.499333 0.506898
1.000000 0.498110 0.505197
0.000000 0.644177 0.513082
0.075471 0.642955 0.511381
0.214967 0.641733 0.509680
0.354464 0.640510 0.507979
0.493960 0.639288 0.506278
0.633457 0.638065 0.504578
0.772953 0.636843 0.502877
0.912450 0.635620 0.501176
1.000000 0.634398 0.499475
0.000000 0.780465 0.507360
0.072431 0.779243 0.505659
0.211928 0.778020 0.503958
0.351424 0.776798 0.502258
0.490921 0.775575 0.500557
0.630417 0.774353 0.498856
0.769914 0.773130 0.497155
0.909410 0.771908 0.495454
1.000000 0.770685 0.493754
0.000000 0.916753 0.501638
0.069392 0.915530 0.499938
0.208888 0.914308 0.498237
0.348385 0.913085 0.496536
0.487881 0.911863 0.494835
0.627378 0.910640 0.493134
0.766874 0.909418 0.491434
0.906371 0.908195 0.489733
1.000000 0.906973 0.488032
0.000000 1.000000 0.495917
0.066352 1.000000 0.494216
0.205849 1.000000 0.492515
0.345345 1.000000 0.490814
0.484842 1.000000 0.489114
0.624338 1.000000 0.487413
0.763834 1.000000 0.485712
0.903331 1.000000 0.484011
1.000000 1.000000 0.482310
0.000000 0.000000 0.681512
0.090362 0.000000 0.679811
0.229859 0.000000 0.678110
0.369355 0.000000 0.676410
0.508852 0.000000 0.674709
0.648348 0.000000 0.673008
0.787844 0.000000 0.671307
0.927341 0.000000 0.669606
1.000000 0.000000 0.667906
0.000000 0.098612 0.675790
0.087323 0.097389 0.674090
0.226819 0.096167 0.672389
0.366315 0.094944 0.670688
0.505812 0.093722 0.668987
0.645308 0.092500 0.667286
0.784805 0.091277 0.665586
0.924301 0.090055 0.663885
1.000000 0.088832 0.662184
0.000000 0.234899 0.670069
0.084283 0.233677 0.668368
0.223779 0.232455 0.666667
0.363276 0.231232 0.664966
0.502772 0.230010 0.663266
0.642269 0.228787 0.661565
0.781765 0.227565 0.659864
0.921262 0.226342 0.658163
1.000000 0.225120 0.656462
0.000000 0.371187 0.664347
0.081243 0.369965 0.662646
0.220740 0.368742 0.660946
0.360236 0.367520 0.659245
0.499733 0.366297 0.657544
0.639229 0.365075 0.655843
0.778726 0.363852 0.654142
0.918222 0.362630 0.652442
1.000000 0.361407 0.650741
0.000000 0.507475 0.658626
0.078204 0.506252 0.656925
0.217700 0.505030 0.655224
0.357197 0.503807 0.653523
0.496693 0.502585 0.651822
0.636190 0.501362 0.650122
0.775686 0.500140 0.648421
0.915183 0.498918 0.646720
1.000000 0.497695 0.645019
0.000000 0.643762 0.652904
0.075164 0.642540 0.651203
0.214661 0.641317 0.649502
0.354157 0.640095 0.647802
0.493654 0.638872 0.646101
0.633150 0.637650 0.644400
0.772646 0.636428 0.642699
0.912143 0.635205 0.640998
1.000000 0.633983 0.639298
0.000000 0.780050 0.647182
0.072125 0.778827 0.645482
0.211621 0.777605 0.643781
0.351117 0.776382 0.642080
0.490614 0.775160 0.640379
0.630110 0.773938 0.638678
0.769607 0.772715 0.636978
0.909103 0.771493 0.635277
1.000000 0.770270 0.633576
0.000000 0.916337 0.641461
0.069085 0.915115 0.639760
0.208581 0.913893 0.638059
0.348078 0.912670 0.636358
0.487574 0.911448 0.634658
0.627071 0.910225 0.632957
0.766567 0.909003 0.631256
0.906064 0.907780 0.629555
1.000000 0.906558 0.627854
0.000000 1.000000 0.635739
0.066045 1.000000 0.634038
0.205542 1.000000 0.632338
0.345038 1.000000 0.630637
0.484535 1.000000 0.628936
0.624031 1.000000 0.627235
0.763528 1.000000 0.625534
0.903024 1.000000 0.623834
1.000000 1.000000 0.622133
0.000000 0.000000 0.821334
0.090055 0.000000 0.819634
0.229552 0.000000 0.817933
0.369048 0.000000 0.816232
0.508545 0.000000 0.814531
0.648041 0.000000 0.812830
0.787538 0.000000 0.811130
0.927034 0.000000 0.809429
1.000000 0.000000 0.807728
0.000000 0.098197 0.815613
0.087016 0.096974 0.813912
0.226512 0.095752 0.812211
0.366009 0.094529 0.810510
0.505505 0.093307 0.808810
0.645002 0.092084 0.807109
0.784498 0.090862 0.805408
0.923994 0.089640 0.803707
1.000000 0.088417 0.802006
0.000000 0.234484 0.809891
0.083976 0.233262 0.808190
0.223473 0.232039 0.806490
0.362969 0.230817 0.804789
0.502465 0.229594 0.803088
0.641962 0.228372 0.801387
0.781458 0.227150 0.799686
0.920955 0.225927 0.797986
1.000000 0.224705 0.796285
0.000000 0.370772 0.804170
0.080937 0.369549 0.802469
0.220433 0.368327 0.800768
0.359929 0.367105 0.799067
0.499426 0.365882 0.797366
0.638922 0.364660 0.795666
0.778419 0.363437 0.793965
0.917915 0.362215 0.792264
1.000000 0.360992 0.790563
0.000000 0.507059 0.798448
0.077897 0.505837 0.796747
0.217393 0.504615 0.795046
0.356890 0.503392 0.793346
0.496386 0.502170 0.791645
0.635883 0.500947 0.789944
0.775379 0.499725 0.788243
0.914876 0.498502 0.786542
1.000000 0.497280 0.784842
0.000000 0.643347 0.792726
0.074857 0.642125 0.791026
0.214354 0.640902 0.789325
0.353850 0.639680 0.787624
0.493347 0.638457 0.785923
0.632843 0.637235 0.784222
0.772340 0.636012 0.782522
0.911836 0.634790 0.780821
1.000000 0.633568 0.779120
0.000000 0.779635 0.787005
0.071818 0.778412 0.785304
0.211314 0.777190 0.783603
0.350811 0.775967 0.781902
0.490307 0.774745 0.780202
0.629804 0.773522 0.778501
0.769300 0.772300 0.776800
0.908796 0.771078 0.775099
1.000000 0.769855 0.773398
0.000000 0.915922 0.781283
0.068778 0.914700 0.779582
0.208275 0.913477 0.777882
0.347771 0.912255 0.776181
0.487267 0.911033 0.774480
0.626764 0.909810 0.772779
0.766260 0.908588 0.771078
0.905757 0.907365 0.769378
1.000000 0.906143 0.767677
0.000000 1.000000 0.775562
0.065739 1.000000 0.773861
0.205235 1.000000 0.772160
0.344731 1.000000 0.770459
0.484228 1.000000 0.768758
0.623724 1.000000 0.767058
0.763221 1.000000 0.765357
0.902717 1.000000 0.763656
1.000000 1.000000 0.761955
0.000000 0.000000 0.961157
0.089748 0.000000 0.959456
0.229245 0.000000 0.957755
0.368741 0.000000 0.956054
0.508238 0.000000 0.954354
0.647734 0.000000 0.952653
0.787231 0.000000 0.950952
0.926727 0.000000 0.949251
1.000000 0.000000 0.947550
0.000000 0.097782 0.955435
0.086709 0.096559 0.953734
0.226205 0.095337 0.952034
0.365702 0.094114 0.950333
0.505198 0.092892 0.948632
0.644695 0.091669 0.946931
0.784191 0.090447 0.945230
0.923688 0.089224 0.943530
1.000000 0.088002 0.941829
0.000000 0.234069 0.949714
0.083669 0.232847 0.948013
0.223166 0.231624 0.946312
0.362662 0.230402 0.944611
0.502159 0.229179 0.942910
0.641655 0.227957 0.941210
0.781152 0.226734 0.939509
0.920648 0.225512 0.937808
1.000000 0.224290 0.936107
0.000000 0.370357 0.943992
0.080630 0.369134 0.942291
0.220126 0.367912 0.940590
0.359623 0.366689 0.938890
0.499119 0.365467 0.937189
0.638616 0.364244 0.935488
0.778112 0.363022 0.933787
0.917608 0.361800 0.932086
1.000000 0.360577 0.930386
0.000000 0.506644 0.938270
0.077590 0.505422 0.936570
0.217087 0.504199 0.934869
0.356583 0.502977 0.933168
0.496079 0.501755 0.931467
0.635576 0.500532 0.929766
0.775072 0.499310 0.928066
0.914569 0.498087 0.926365
1.000000 0.496865 0.924664
0.000000 0.642932 0.932549
0.074550 0.641710 0.930848
0.214047 0.640487 0.929147
0.353543 0.639265 0.927446
0.493040 0.638042 0.925746
0.632536 0.636820 0.924045
0.772033 0.635597 0.922344
0.911529 0.634375 0.920643
1.000000 0.633152 0.918942
0.000000 0.779220 0.926827
0.071511 0.777997 0.925126
0.211007 0.776775 0.923426
0.350504 0.775552 0.921725
0.490000 0.774330 0.920024
0.629497 0.773107 0.918323
0.768993 0.771885 0.916622
0.908490 0.770662 0.914922
1.000000 0.769440 0.913221
0.000000 0.915507 0.921106
0.068471 0.914285 0.919405
0.207968 0.913062 0.917704
0.347464 0.911840 0.916003
0.486961 0.910617 0.914302
0.626457 0.909395 0.912602
0.765954 0.908172 0.910901
0.905450 0.906950 0.909200
1.000000 0.905728 0.907499
0.000000 1.000000 0.915384
0.065432 1.000000 0.913683
0.204928 1.000000 0.911982
0.344425 1.000000 0.910282
0.483921 1.000000 0.908581
0.623417 1.000000 0.906880
0.762914 1.000000 0.905179
0.902410 1.000000 0.903478
1.000000 1.000000 0.901778
0.000000 0.000000 1.000000
0.089442 0.000000 1.000000
0.228938 0.000000 1.000000
0.368435 0.000000 1.000000
0.507931 0.000000 1.000000
0.647427 0.000000 1.000000
0.786924 0.000000 1.000000
0.926420 0.000000 1.000000
1.000000 0.000000 1.000000
0.000000 0.097366 1.000000
0.086402 0.096144 1.000000
0.225898 0.094921 1.000000
0.365395 0.093699 1.000000
0.504891 0.092477 1.000000
0.644388 0.091254 1.000000
0.783884 0.090032 1.000000
0.923381 0.088809 1.000000
1.000000 0.087587 1.000000
0.000000 0.233654 1.000000
0.083362 0.232432 1.000000
0.222859 0.231209 1.000000
0.362355 0.229987 1.000000
0.501852 0.228764 1.000000
0.641348 0.227542 1.000000
0.780845 0.226319 1.000000
0.920341 0.225097 1.000000
1.000000 0.223874 1.000000
0.000000 0.369942 1.000000
0.080323 0.368719 1.000000
0.219819 0.367497 1.000000
0.359316 0.366274 1.000000
0.498812 0.365052 1.000000
0.638309 0.363829 1.000000
0.777805 0.362607 1.000000
0.917302 0.361384 1.000000
1.000000 0.360162 1.000000
0.000000 0.506229 1.000000
0.077283 0.505007 1.000000
0.216780 0.503784 1.000000
0.356276 0.502562 1.000000
0.495773 0.501339 1.000000
0.635269 0.500117 1.000000
0.774766 0.498894 1.000000
0.914262 0.497672 1.000000
1.000000 0.496450 1.000000
0.000000 0.642517 1.000000
0.074244 0.641294 1.000000
0.213740 0.640072 1.000000
0.353237 0.638849 1.000000
0.492733 0.637627 1.000000
0.632229 0.636405 1.000000
0.771726 0.635182 1.000000
0.911222 0.633960 1.000000
1.000000 0.632737 1.000000
0.000000 0.778804 1.000000
0.071204 0.777582 1.000000
0.210700 0.776359 1.000000
0.350197 0.775137 1.000000
0.489693 0.773915 1.000000
0.629190 0.772692 1.000000
0.768686 0.771470 1.000000
0.908183 0.770247 1.000000
1.000000 0.769025 1.000000
0.000000 0.915092 1.000000
0.068164 0.913870 1.000000
0.207661 0.912647 1.000000
0.347157 0.911425 1.000000
0.486654 0.910202 1.000000
0.626150 0.908980 1.000000
0.765647 0.907757 1.000000
0.905143 0.906535 1.000000
1.000000 0.905312 1.000000
0.000000 1.000000 1.000000
0.065125 1.000000 1.000000
0.204621 1.000000 1.000000
0.344118 1.000000 1.000000
0.483614 1.000000 1.000000
0.623111 1.000000 1.000000
0.762607 1.000000 1.000000
0.902104 1.000000 1.000000
1.000000 1.000000 1.000000
