tests/fixtures/media-resource-catalog-v1-production/assets/editor-luts/soft-cinema-17.cube
TITLE "Visual Multimedia Soft Cinema"
LUT_3D_SIZE 9
DOMAIN_MIN 0.0 0.0 0.0
DOMAIN_MAX 1.0 1.0 1.0
0.016560 0.016560 0.016560
0.057193 0.018792 0.018314
0.160056 0.021025 0.020068
0.304405 0.023257 0.021822
0.469497 0.025489 0.023576
0.634590 0.027722 0.025330
0.778939 0.029954 0.027084
0.881801 0.032186 0.028838
0.922435 0.034418 0.030592
0.025321 0.062099 0.022460
0.065955 0.064331 0.024214
0.168817 0.066563 0.025968
0.313166 0.068796 0.027722
0.478259 0.071028 0.029476
0.643351 0.073260 0.031230
0.787700 0.075492 0.032984
0.890563 0.077725 0.034738
0.931196 0.079957 0.036492
0.034082 0.169867 0.028361
0.074716 0.172099 0.030115
0.177579 0.174331 0.031869
0.321928 0.176564 0.033623
0.487020 0.178796 0.035377
0.652112 0.181028 0.037131
0.796461 0.183260 0.038884
0.899324 0.185493 0.040638
0.939957 0.187725 0.042392
0.042844 0.319121 0.034261
0.083477 0.321353 0.036015
0.186340 0.323586 0.037769
0.330689 0.325818 0.039523
0.495781 0.328050 0.041277
0.660873 0.330282 0.043031
0.805222 0.332515 0.044785
0.908085 0.334747 0.046539
0.948718 0.336979 0.048293
0.051605 0.489118 0.040162
0.092238 0.491351 0.041916
0.195101 0.493583 0.043670
0.339450 0.495815 0.045423
0.504542 0.498048 0.047177
0.669634 0.500280 0.048931
0.813983 0.502512 0.050685
0.916846 0.504744 0.052439
0.957480 0.506977 0.054193
0.060366 0.659116 0.046062
0.100999 0.661348 0.047816
0.203862 0.663580 0.049570
0.348211 0.665813 0.051324
0.513303 0.668045 0.053078
0.678396 0.670277 0.054832
0.822745 0.672510 0.056586
0.925607 0.674742 0.058340
0.966241 0.676974 0.060094
0.069127 0.808370 0.051962
0.109761 0.810602 0.053716
0.212623 0.812835 0.055470
0.356972 0.815067 0.057224
0.522065 0.817299 0.058978
0.687157 0.819532 0.060732
0.831506 0.821764 0.062486
0.934369 0.823996 0.064240
0.975002 0.826229 0.065994
0.077888 0.916138 0.057863
0.118522 0.918370 0.059617
0.221385 0.920603 0.061371
0.365734 0.922835 0.063125
0.530826 0.925067 0.064879
0.695918 0.927300 0.066633
0.840267 0.929532 0.068387
0.943130 0.931764 0.070140
0.983763 0.933997 0.071894
0.086650 0.961677 0.063763
0.127283 0.963909 0.065517
0.230146 0.966141 0.067271
0.374495 0.968374 0.069025
0.539587 0.970606 0.070779
0.704679 0.972838 0.072533
0.849028 0.975071 0.074287
0.951891 0.977303 0.076041
0.992524 0.979535 0.077795
0.017444 0.017318 0.055185
0.058078 0.019550 0.056939
0.160941 0.021783 0.058693
0.305290 0.024015 0.060447
0.470382 0.026247 0.062201
0.635474 0.028480 0.063954
0.779823 0.030712 0.065708
0.882686 0.032944 0.067462
0.923319 0.035176 0.069216
0.026206 0.062857 0.061085
0.066839 0.065089 0.062839
0.169702 0.067321 0.064593
0.314051 0.069554 0.066347
0.479143 0.071786 0.068101
0.644235 0.074018 0.069855
0.788584 0.076251 0.071609
0.891447 0.078483 0.073363
0.932080 0.080715 0.075117
0.034967 0.170625 0.066986
0.075600 0.172857 0.068739
0.178463 0.175089 0.070493
0.322812 0.177322 0.072247
0.487904 0.179554 0.074001
0.652996 0.181786 0.075755
0.797345 0.184019 0.077509
0.900208 0.186251 0.079263
0.940842 0.188483 0.081017
0.043728 0.319879 0.072886
0.084361 0.322111 0.074640
0.187224 0.324344 0.076394
0.331573 0.326576 0.078148
0.496665 0.328808 0.079902
0.661758 0.331041 0.081656
0.806107 0.333273 0.083410
0.908969 0.335505 0.085164
0.949603 0.337737 0.086918
0.052489 0.489876 0.078786
0.093123 0.492109 0.080540
0.195985 0.494341 0.082294
0.340334 0.496573 0.084048
0.505427 0.498806 0.085802
0.670519 0.501038 0.087556
0.814868 0.503270 0.089310
0.917731 0.505503 0.091064
0.958364 0.507735 0.092818
0.061250 0.659874 0.084687
0.101884 0.662106 0.086441
0.204747 0.664339 0.088195
0.349096 0.666571 0.089949
0.514188 0.668803 0.091703
0.679280 0.671035 0.093456
0.823629 0.673268 0.095210
0.926492 0.675500 0.096964
0.967125 0.677732 0.098718
0.070012 0.809128 0.090587
0.110645 0.811361 0.092341
0.213508 0.813593 0.094095
0.357857 0.815825 0.095849
0.522949 0.818057 0.097603
0.688041 0.820290 0.099357
0.832390 0.822522 0.101111
0.935253 0.824754 0.102865
0.975886 0.826987 0.104619
0.078773 0.916896 0.096488
0.119406 0.919129 0.098241
0.222269 0.921361 0.099995
0.366618 0.923593 0.101749
0.531710 0.925825 0.103503
0.696802 0.928058 0.105257
0.841151 0.930290 0.107011
0.944014 0.932522 0.108765
0.984648 0.934755 0.110519
0.087534 0.962435 0.102388
0.128167 0.964667 0.104142
0.231030 0.966899 0.105896
0.375379 0.969132 0.107650
0.540471 0.971364 0.109404
0.705564 0.973596 0.111158
0.849913 0.975829 0.112912
0.952775 0.978061 0.114666
0.993409 0.980293 0.116420
0.018329 0.018076 0.156039
0.058962 0.020309 0.157793
0.161825 0.022541 0.159547
0.306174 0.024773 0.161301
0.471266 0.027005 0.163055
0.636358 0.029238 0.164809
0.780707 0.031470 0.166563
0.883570 0.033702 0.168316
0.924204 0.035935 0.170070
0.027090 0.063615 0.161939
0.067724 0.065847 0.163693
0.170586 0.068079 0.165447
0.314935 0.070312 0.167201
0.480027 0.072544 0.168955
0.645120 0.074776 0.170709
0.789469 0.077009 0.172463
0.892331 0.079241 0.174217
0.932965 0.081473 0.175971
0.035851 0.171383 0.167840
0.076485 0.173615 0.169594
0.179347 0.175847 0.171347
0.323697 0.178080 0.173101
0.488789 0.180312 0.174855
0.653881 0.182544 0.176609
0.798230 0.184777 0.178363
0.901093 0.187009 0.180117
0.941726 0.189241 0.181871
0.044612 0.320637 0.173740
0.085246 0.322869 0.175494
0.188109 0.325102 0.177248
0.332458 0.327334 0.179002
0.497550 0.329566 0.180756
0.662642 0.331799 0.182510
0.806991 0.334031 0.184264
0.909854 0.336263 0.186018
0.950487 0.338496 0.187772
0.053374 0.490635 0.179640
0.094007 0.492867 0.181394
0.196870 0.495099 0.183148
0.341219 0.497331 0.184902
0.506311 0.499564 0.186656
0.671403 0.501796 0.188410
0.815752 0.504028 0.190164
0.918615 0.506261 0.191918
0.959249 0.508493 0.193672
0.062135 0.660632 0.185541
0.102768 0.662864 0.187295
0.205631 0.665097 0.189049
0.349980 0.667329 0.190803
0.515072 0.669561 0.192557
0.680164 0.671794 0.194311
0.824514 0.674026 0.196064
0.927376 0.676258 0.197818
0.968010 0.678490 0.199572
0.070896 0.809886 0.191441
0.111530 0.812119 0.193195
0.214392 0.814351 0.194949
0.358741 0.816583 0.196703
0.523834 0.818815 0.198457
0.688926 0.821048 0.200211
0.833275 0.823280 0.201965
0.936137 0.825512 0.203719
0.976771 0.827745 0.205473
0.079657 0.917654 0.197342
0.120291 0.919887 0.199096
0.223153 0.922119 0.200849
0.367503 0.924351 0.202603
0.532595 0.926584 0.204357
0.697687 0.928816 0.206111
0.842036 0.931048 0.207865
0.944899 0.933280 0.209619
0.985532 0.935513 0.211373
0.088418 0.963193 0.203242
0.129052 0.965425 0.204996
0.231915 0.967658 0.206750
0.376264 0.969890 0.208504
0.541356 0.972122 0.210258
0.706448 0.974355 0.212012
0.850797 0.976587 0.213766
0.953660 0.978819 0.215520
0.994293 0.981051 0.217274
0.019213 0.018834 0.298379
0.059847 0.021067 0.300133
0.162710 0.023299 0.301887
0.307059 0.025531 0.303641
0.472151 0.027764 0.305395
0.637243 0.029996 0.307149
0.781592 0.032228 0.308903
0.884455 0.034460 0.310657
0.925088 0.036693 0.312411
0.027975 0.064373 0.304280
0.068608 0.066605 0.306033
0.171471 0.068838 0.307787
0.315820 0.071070 0.309541
0.480912 0.073302 0.311295
0.646004 0.075534 0.313049
0.790353 0.077767 0.314803
0.893216 0.079999 0.316557
0.933849 0.082231 0.318311
0.036736 0.172141 0.310180
0.077369 0.174373 0.311934
0.180232 0.176606 0.313688
0.324581 0.178838 0.315442
0.489673 0.181070 0.317196
0.654765 0.183302 0.318950
0.799114 0.185535 0.320704
0.901977 0.187767 0.322458
0.942611 0.189999 0.324212
0.045497 0.321395 0.316080
0.086130 0.323628 0.317834
0.188993 0.325860 0.319588
0.333342 0.328092 0.321342
0.498434 0.330324 0.323096
0.663527 0.332557 0.324850
0.807876 0.334789 0.326604
0.910738 0.337021 0.328358
0.951372 0.339254 0.330112
0.054258 0.491393 0.321981
0.094892 0.493625 0.323735
0.197754 0.495857 0.325489
0.342103 0.498090 0.327243
0.507196 0.500322 0.328997
0.672288 0.502554 0.330750
0.816637 0.504787 0.332504
0.919500 0.507019 0.334258
0.960133 0.509251 0.336012
0.063019 0.661390 0.327881
0.103653 0.663622 0.329635
0.206516 0.665855 0.331389
0.350865 0.668087 0.333143
0.515957 0.670319 0.334897
0.681049 0.672552 0.336651
0.825398 0.674784 0.338405
0.928261 0.677016 0.340159
0.968894 0.679249 0.341913
0.071781 0.810644 0.333782
0.112414 0.812877 0.335535
0.215277 0.815109 0.337289
0.359626 0.817341 0.339043
0.524718 0.819574 0.340797
0.689810 0.821806 0.342551
0.834159 0.824038 0.344305
0.937022 0.826271 0.346059
0.977655 0.828503 0.347813
0.080542 0.918412 0.339682
0.121175 0.920645 0.341436
0.224038 0.922877 0.343190
0.368387 0.925109 0.344944
0.533479 0.927342 0.346698
0.698571 0.929574 0.348452
0.842920 0.931806 0.350206
0.945783 0.934039 0.351960
0.986417 0.936271 0.353714
0.089303 0.963951 0.345582
0.129936 0.966183 0.347336
0.232799 0.968416 0.349090
0.377148 0.970648 0.350844
0.542240 0.972880 0.352598
0.707333 0.975113 0.354352
0.851682 0.977345 0.356106
0.954544 0.979577 0.357860
0.995178 0.981810 0.359614
0.020098 0.019592 0.461463
0.060731 0.021825 0.463217
0.163594 0.024057 0.464971
0.307943 0.026289 0.466724
0.473035 0.028522 0.468478
0.638127 0.030754 0.470232
0.782476 0.032986 0.471986
0.885339 0.035218 0.473740
0.925973 0.037451 0.475494
0.028859 0.065131 0.467363
0.069492 0.067363 0.469117
0.172355 0.069596 0.470871
0.316704 0.071828 0.472625
0.481796 0.074060 0.474379
0.646889 0.076293 0.476133
0.791238 0.078525 0.477887
0.894100 0.080757 0.479641
0.934734 0.082989 0.481395
0.037620 0.172899 0.473263
0.078254 0.175131 0.475017
0.181116 0.177364 0.476771
0.325465 0.179596 0.478525
0.490558 0.181828 0.480279
0.655650 0.184061 0.482033
0.799999 0.186293 0.483787
0.902862 0.188525 0.485541
0.943495 0.190757 0.487295
0.046381 0.322153 0.479164
0.087015 0.324386 0.480918
0.189878 0.326618 0.482672
0.334227 0.328850 0.484426
0.499319 0.331083 0.486180
0.664411 0.333315 0.487934
0.808760 0.335547 0.489687
0.911623 0.337779 0.491441
0.952256 0.340012 0.493195
0.055143 0.492151 0.485064
0.095776 0.494383 0.486818
0.198639 0.496615 0.488572
0.342988 0.498848 0.490326
0.508080 0.501080 0.492080
0.673172 0.503312 0.493834
0.817521 0.505545 0.495588
0.920384 0.507777 0.497342
0.961017 0.510009 0.499096
0.063904 0.662148 0.490965
0.104537 0.664381 0.492719
0.207400 0.666613 0.494472
0.351749 0.668845 0.496226
0.516841 0.671077 0.497980
0.681933 0.673310 0.499734
0.826282 0.675542 0.501488
0.929145 0.677774 0.503242
0.969779 0.680007 0.504996
0.072665 0.811403 0.496865
0.113298 0.813635 0.498619
0.216161 0.815867 0.500373
0.360510 0.818099 0.502127
0.525602 0.820332 0.503881
0.690695 0.822564 0.505635
0.835044 0.824796 0.507389
0.937906 0.827029 0.509143
0.978540 0.829261 0.510897
0.081426 0.919171 0.502765
0.122060 0.921403 0.504519
0.224922 0.923635 0.506273
0.369271 0.925867 0.508027
0.534364 0.928100 0.509781
0.699456 0.930332 0.511535
0.843805 0.932564 0.513289
0.946668 0.934797 0.515043
0.987301 0.937029 0.516797
0.090187 0.964709 0.508666
0.130821 0.966942 0.510420
0.233684 0.969174 0.512174
0.378033 0.971406 0.513928
0.543125 0.973638 0.515682
0.708217 0.975871 0.517436
0.852566 0.978103 0.519189
0.955429 0.980335 0.520943
0.996062 0.982568 0.522697
0.020982 0.020350 0.624546
0.061616 0.022583 0.626300
0.164478 0.024815 0.628054
0.308827 0.027047 0.629808
0.473920 0.029280 0.631562
0.639012 0.031512 0.633316
0.783361 0.033744 0.635070
0.886224 0.035977 0.636824
0.926857 0.038209 0.638578
0.029743 0.065889 0.630446
0.070377 0.068121 0.632200
0.173240 0.070354 0.633954
0.317589 0.072586 0.635708
0.482681 0.074818 0.637462
0.647773 0.077051 0.639216
0.792122 0.079283 0.640970
0.894985 0.081515 0.642724
0.935618 0.083748 0.644478
0.038505 0.173657 0.636347
0.079138 0.175889 0.638101
0.182001 0.178122 0.639855
0.326350 0.180354 0.641609
0.491442 0.182586 0.643363
0.656534 0.184819 0.645117
0.800883 0.187051 0.646871
0.903746 0.189283 0.648625
0.944379 0.191516 0.650378
0.047266 0.322911 0.642247
0.087899 0.325144 0.644001
0.190762 0.327376 0.645755
0.335111 0.329608 0.647509
0.500203 0.331841 0.649263
0.665295 0.334073 0.651017
0.809644 0.336305 0.652771
0.912507 0.338538 0.654525
0.953141 0.340770 0.656279
0.056027 0.492909 0.648148
0.096660 0.495141 0.649902
0.199523 0.497373 0.651656
0.343872 0.499606 0.653410
0.508964 0.501838 0.655163
0.674057 0.504070 0.656917
0.818406 0.506303 0.658671
0.921268 0.508535 0.660425
0.961902 0.510767 0.662179
0.064788 0.662906 0.654048
0.105422 0.665139 0.655802
0.208284 0.667371 0.657556
0.352633 0.669603 0.659310
0.517726 0.671836 0.661064
0.682818 0.674068 0.662818
0.827167 0.676300 0.664572
0.930030 0.678532 0.666326
0.970663 0.680765 0.668080
0.073549 0.812161 0.659948
0.114183 0.814393 0.661702
0.217046 0.816625 0.663456
0.361395 0.818858 0.665210
0.526487 0.821090 0.666964
0.691579 0.823322 0.668718
0.835928 0.825554 0.670472
0.938791 0.827787 0.672226
0.979424 0.830019 0.673980
0.082311 0.919929 0.665849
0.122944 0.922161 0.667603
0.225807 0.924393 0.669357
0.370156 0.926626 0.671111
0.535248 0.928858 0.672865
0.700340 0.931090 0.674619
0.844689 0.933322 0.676373
0.947552 0.935555 0.678127
0.988185 0.937787 0.679880
0.091072 0.965467 0.671749
0.131705 0.967700 0.673503
0.234568 0.969932 0.675257
0.378917 0.972164 0.677011
0.544009 0.974396 0.678765
0.709101 0.976629 0.680519
0.853450 0.978861 0.682273
0.956313 0.981093 0.684027
0.996947 0.983326 0.685781
0.021867 0.021109 0.766886
0.062500 0.023341 0.768640
0.165363 0.025573 0.770394
0.309712 0.027806 0.772148
0.474804 0.030038 0.773902
0.639896 0.032270 0.775656
0.784245 0.034502 0.777410
0.887108 0.036735 0.779164
0.927741 0.038967 0.780918
0.030628 0.066647 0.772787
0.071261 0.068880 0.774541
0.174124 0.071112 0.776295
0.318473 0.073344 0.778049
0.483565 0.075576 0.779803
0.648657 0.077809 0.781557
0.793007 0.080041 0.783311
0.895869 0.082273 0.785064
0.936503 0.084506 0.786818
0.039389 0.174415 0.778687
0.080023 0.176648 0.780441
0.182885 0.178880 0.782195
0.327234 0.181112 0.783949
0.492327 0.183344 0.785703
0.657419 0.185577 0.787457
0.801768 0.187809 0.789211
0.904630 0.190041 0.790965
0.945264 0.192274 0.792719
0.048150 0.323670 0.784588
0.088784 0.325902 0.786342
0.191646 0.328134 0.788096
0.335996 0.330366 0.789849
0.501088 0.332599 0.791603
0.666180 0.334831 0.793357
0.810529 0.337063 0.795111
0.913392 0.339296 0.796865
0.954025 0.341528 0.798619
0.056911 0.493667 0.790488
0.097545 0.495899 0.792242
0.200408 0.498132 0.793996
0.344757 0.500364 0.795750
0.509849 0.502596 0.797504
0.674941 0.504829 0.799258
0.819290 0.507061 0.801012
0.922153 0.509293 0.802766
0.962786 0.511525 0.804520
0.065673 0.663664 0.796388
0.106306 0.665897 0.798142
0.209169 0.668129 0.799896
0.353518 0.670361 0.801650
0.518610 0.672594 0.803404
0.683702 0.674826 0.805158
0.828051 0.677058 0.806912
0.930914 0.679291 0.808666
0.971548 0.681523 0.810420
0.074434 0.812919 0.802289
0.115067 0.815151 0.804043
0.217930 0.817383 0.805797
0.362279 0.819616 0.807551
0.527371 0.821848 0.809305
0.692463 0.824080 0.811059
0.836812 0.826313 0.812813
0.939675 0.828545 0.814566
0.980309 0.830777 0.816320
0.083195 0.920687 0.808189
0.123829 0.922919 0.809943
0.226691 0.925151 0.811697
0.371040 0.927384 0.813451
0.536133 0.929616 0.815205
0.701225 0.931848 0.816959
0.845574 0.934081 0.818713
0.948436 0.936313 0.820467
0.989070 0.938545 0.822221
0.091956 0.966225 0.814090
0.132590 0.968458 0.815844
0.235453 0.970690 0.817597
0.379802 0.972922 0.819351
0.544894 0.975155 0.821105
0.709986 0.977387 0.822859
0.854335 0.979619 0.824613
0.957198 0.981851 0.826367
0.997831 0.984084 0.828121
0.022751 0.021867 0.867740
0.063385 0.024099 0.869494
0.166247 0.026331 0.871248
0.310596 0.028564 0.873002
0.475689 0.030796 0.874756
0.640781 0.033028 0.876510
0.785130 0.035260 0.878264
0.887993 0.037493 0.880018
0.928626 0.039725 0.881772
0.031512 0.067405 0.873641
0.072146 0.069638 0.875395
0.175009 0.071870 0.877149
0.319358 0.074102 0.878903
0.484450 0.076335 0.880657
0.649542 0.078567 0.882411
0.793891 0.080799 0.884165
0.896754 0.083031 0.885919
0.937387 0.085264 0.887672
0.040274 0.175173 0.879541
0.080907 0.177406 0.881295
0.183770 0.179638 0.883049
0.328119 0.181870 0.884803
0.493211 0.184103 0.886557
0.658303 0.186335 0.888311
0.802652 0.188567 0.890065
0.905515 0.190799 0.891819
0.946148 0.193032 0.893573
0.049035 0.324428 0.885442
0.089668 0.326660 0.887196
0.192531 0.328892 0.888950
0.336880 0.331125 0.890704
0.501972 0.333357 0.892457
0.667064 0.335589 0.894211
0.811413 0.337821 0.895965
0.914276 0.340054 0.897719
0.954910 0.342286 0.899473
0.057796 0.494425 0.891342
0.098429 0.496657 0.893096
0.201292 0.498890 0.894850
0.345641 0.501122 0.896604
0.510733 0.503354 0.898358
0.675826 0.505587 0.900112
0.820175 0.507819 0.901866
0.923037 0.510051 0.903620
0.963671 0.512284 0.905374
0.066557 0.664423 0.897242
0.107191 0.666655 0.898996
0.210053 0.668887 0.900750
0.354402 0.671119 0.902504
0.519495 0.673352 0.904258
0.684587 0.675584 0.906012
0.828936 0.677816 0.907766
0.931799 0.680049 0.909520
0.972432 0.682281 0.911274
0.075318 0.813677 0.903143
0.115952 0.815909 0.904897
0.218815 0.818141 0.906651
0.363164 0.820374 0.908405
0.528256 0.822606 0.910159
0.693348 0.824838 0.911913
0.837697 0.827071 0.913667
0.940560 0.829303 0.915421
0.981193 0.831535 0.917174
0.084080 0.921445 0.909043
0.124713 0.923677 0.910797
0.227576 0.925909 0.912551
0.371925 0.928142 0.914305
0.537017 0.930374 0.916059
0.702109 0.932606 0.917813
0.846458 0.934839 0.919567
0.949321 0.937071 0.921321
0.989954 0.939303 0.923075
0.092841 0.966983 0.914944
0.133474 0.969216 0.916698
0.236337 0.971448 0.918452
0.380686 0.973680 0.920206
0.545778 0.975913 0.921959
0.710870 0.978145 0.923713
0.855219 0.980377 0.925467
0.958082 0.982610 0.927221
0.998716 0.984842 0.928975
0.023636 0.022625 0.906365
0.064269 0.024857 0.908119
0.167132 0.027089 0.909873
0.311481 0.029322 0.911627
0.476573 0.031554 0.913381
0.641665 0.033786 0.915135
0.786014 0.036019 0.916889
0.888877 0.038251 0.918643
0.929510 0.040483 0.920397
0.032397 0.068163 0.912266
0.073030 0.070396 0.914020
0.175893 0.072628 0.915774
0.320242 0.074860 0.917527
0.485334 0.077093 0.919281
0.650426 0.079325 0.921035
0.794775 0.081557 0.922789
0.897638 0.083790 0.924543
0.938272 0.086022 0.926297
0.041158 0.175931 0.918166
0.081791 0.178164 0.919920
0.184654 0.180396 0.921674
0.329003 0.182628 0.923428
0.494095 0.184861 0.925182
0.659188 0.187093 0.926936
0.803537 0.189325 0.928690
0.906399 0.191558 0.930444
0.947033 0.193790 0.932198
0.049919 0.325186 0.924066
0.090553 0.327418 0.925820
0.193415 0.329650 0.927574
0.337764 0.331883 0.929328
0.502857 0.334115 0.931082
0.667949 0.336347 0.932836
0.812298 0.338580 0.934590
0.915161 0.340812 0.936344
0.955794 0.343044 0.938098
0.058680 0.495183 0.929967
0.099314 0.497415 0.931721
0.202177 0.499648 0.933475
0.346526 0.501880 0.935229
0.511618 0.504112 0.936983
0.676710 0.506345 0.938737
0.821059 0.508577 0.940491
0.923922 0.510809 0.942244
0.964555 0.513042 0.943998
0.067442 0.665181 0.935867
0.108075 0.667413 0.937621
0.210938 0.669645 0.939375
0.355287 0.671878 0.941129
0.520379 0.674110 0.942883
0.685471 0.676342 0.944637
0.829820 0.678574 0.946391
0.932683 0.680807 0.948145
0.973316 0.683039 0.949899
0.076203 0.814435 0.941768
0.116836 0.816667 0.943522
0.219699 0.818900 0.945275
0.364048 0.821132 0.947029
0.529140 0.823364 0.948783
0.694232 0.825596 0.950537
0.838581 0.827829 0.952291
0.941444 0.830061 0.954045
0.982078 0.832293 0.955799
0.084964 0.922203 0.947668
0.125597 0.924435 0.949422
0.228460 0.926668 0.951176
0.372809 0.928900 0.952930
0.537901 0.931132 0.954684
0.702994 0.933364 0.956438
0.847343 0.935597 0.958192
0.950205 0.937829 0.959946
0.990839 0.940061 0.961700
0.093725 0.967742 0.953568
0.134359 0.969974 0.955322
0.237221 0.972206 0.957076
0.381570 0.974438 0.958830
0.546663 0.976671 0.960584
0.711755 0.978903 0.962338
0.856104 0.981135 0.964092
0.958967 0.983368 0.965846
0.999600 0.985600 0.967600
