tests/fixtures/media-resource-catalog-v1-production/assets/editor-luts/soft-cinema-17.cube
TITLE "Visual Multimedia Soft Cinema"
LUT_3D_SIZE 17
DOMAIN_MIN 0.0 0.0 0.0
DOMAIN_MAX 1.0 1.0 1.0
0.016560 0.016560 0.016560
0.027802 0.017676 0.017437
0.057193 0.018792 0.018314
0.102143 0.019908 0.019191
0.160056 0.021025 0.020068
0.228341 0.022141 0.020945
0.304405 0.023257 0.021822
0.385655 0.024373 0.022699
0.469497 0.025489 0.023576
0.553340 0.026605 0.024453
0.634590 0.027722 0.025330
0.710653 0.028838 0.026207
0.778939 0.029954 0.027084
0.836852 0.031070 0.027961
0.881801 0.032186 0.028838
0.911193 0.033302 0.029715
0.922435 0.034418 0.030592
0.020941 0.030254 0.019510
0.032182 0.031370 0.020387
0.061574 0.032487 0.021264
0.106523 0.033603 0.022141
0.164437 0.034719 0.023018
0.232722 0.035835 0.023895
0.308786 0.036951 0.024772
0.390035 0.038067 0.025649
0.473878 0.039183 0.026526
0.557721 0.040300 0.027403
0.638970 0.041416 0.028280
0.715034 0.042532 0.029157
0.783319 0.043648 0.030034
0.841233 0.044764 0.030911
0.886182 0.045880 0.031788
0.915574 0.046996 0.032665
0.926815 0.048113 0.033542
0.025321 0.062099 0.022460
0.036563 0.063215 0.023337
0.065955 0.064331 0.024214
0.110904 0.065447 0.025091
0.168817 0.066563 0.025968
0.237103 0.067679 0.026845
0.313166 0.068796 0.027722
0.394416 0.069912 0.028599
0.478259 0.071028 0.029476
0.562101 0.072144 0.030353
0.643351 0.073260 0.031230
0.719415 0.074376 0.032107
0.787700 0.075492 0.032984
0.845613 0.076609 0.033861
0.890563 0.077725 0.034738
0.919954 0.078841 0.035615
0.931196 0.079957 0.036492
0.029702 0.109500 0.025411
0.040943 0.110617 0.026288
0.070335 0.111733 0.027165
0.115284 0.112849 0.028042
0.173198 0.113965 0.028918
0.241483 0.115081 0.029795
0.317547 0.116197 0.030672
0.398797 0.117314 0.031549
0.482639 0.118430 0.032426
0.566482 0.119546 0.033303
0.647731 0.120662 0.034180
0.723795 0.121778 0.035057
0.792080 0.122894 0.035934
0.849994 0.124010 0.036811
0.894943 0.125127 0.037688
0.924335 0.126243 0.038565
0.935577 0.127359 0.039442
0.034082 0.169867 0.028361
0.045324 0.170983 0.029238
0.074716 0.172099 0.030115
0.119665 0.173215 0.030992
0.177579 0.174331 0.031869
0.245864 0.175447 0.032746
0.321928 0.176564 0.033623
0.403177 0.177680 0.034500
0.487020 0.178796 0.035377
0.570862 0.179912 0.036254
0.652112 0.181028 0.037131
0.728176 0.182144 0.038008
0.796461 0.183260 0.038884
0.854375 0.184377 0.039761
0.899324 0.185493 0.040638
0.928716 0.186609 0.041515
0.939957 0.187725 0.042392
0.038463 0.240605 0.031311
0.049705 0.241721 0.032188
0.079096 0.242837 0.033065
0.124046 0.243953 0.033942
0.181959 0.245069 0.034819
0.250244 0.246185 0.035696
0.326308 0.247301 0.036573
0.407558 0.248418 0.037450
0.491400 0.249534 0.038327
0.575243 0.250650 0.039204
0.656493 0.251766 0.040081
0.732556 0.252882 0.040958
0.800842 0.253998 0.041835
0.858755 0.255114 0.042712
0.903704 0.256231 0.043589
0.933096 0.257347 0.044466
0.944338 0.258463 0.045343
0.042844 0.319121 0.034261
0.054085 0.320237 0.035138
0.083477 0.321353 0.036015
0.128426 0.322469 0.036892
0.186340 0.323586 0.037769
0.254625 0.324702 0.038646
0.330689 0.325818 0.039523
0.411938 0.326934 0.040400
0.495781 0.328050 0.041277
0.579624 0.329166 0.042154
0.660873 0.330282 0.043031
0.736937 0.331399 0.043908
0.805222 0.332515 0.044785
0.863136 0.333631 0.045662
0.908085 0.334747 0.046539
0.937477 0.335863 0.047416
0.948718 0.336979 0.048293
0.047224 0.402823 0.037211
0.058466 0.403939 0.038088
0.087858 0.405056 0.038965
0.132807 0.406172 0.039842
0.190720 0.407288 0.040719
0.259006 0.408404 0.041596
0.335069 0.409520 0.042473
0.416319 0.410636 0.043350
0.500162 0.411752 0.044227
0.584004 0.412869 0.045104
0.665254 0.413985 0.045981
0.741318 0.415101 0.046858
0.809603 0.416217 0.047735
0.867516 0.417333 0.048612
0.912466 0.418449 0.049489
0.941857 0.419565 0.050366
0.953099 0.420682 0.051243
0.051605 0.489118 0.040162
0.062846 0.490235 0.041039
0.092238 0.491351 0.041916
0.137187 0.492467 0.042793
0.195101 0.493583 0.043670
0.263386 0.494699 0.044546
0.339450 0.495815 0.045423
0.420700 0.496931 0.046300
0.504542 0.498048 0.047177
0.588385 0.499164 0.048054
0.669634 0.500280 0.048931
0.745698 0.501396 0.049808
0.813983 0.502512 0.050685
0.871897 0.503628 0.051562
0.916846 0.504744 0.052439
0.946238 0.505861 0.053316
0.957480 0.506977 0.054193
0.055985 0.575414 0.043112
0.067227 0.576530 0.043989
0.096619 0.577646 0.044866
0.141568 0.578762 0.045743
0.199482 0.579878 0.046620
0.267767 0.580994 0.047497
0.343831 0.582110 0.048374
0.425080 0.583227 0.049251
0.508923 0.584343 0.050128
0.592765 0.585459 0.051005
0.674015 0.586575 0.051882
0.750079 0.587691 0.052759
0.818364 0.588807 0.053636
0.876278 0.589924 0.054512
0.921227 0.591040 0.055389
0.950619 0.592156 0.056266
0.961860 0.593272 0.057143
0.060366 0.659116 0.046062
0.071608 0.660232 0.046939
0.100999 0.661348 0.047816
0.145949 0.662464 0.048693
0.203862 0.663580 0.049570
0.272147 0.664697 0.050447
0.348211 0.665813 0.051324
0.429461 0.666929 0.052201
0.513303 0.668045 0.053078
0.597146 0.669161 0.053955
0.678396 0.670277 0.054832
0.754459 0.671393 0.055709
0.822745 0.672510 0.056586
0.880658 0.673626 0.057463
0.925607 0.674742 0.058340
0.954999 0.675858 0.059217
0.966241 0.676974 0.060094
0.064747 0.737632 0.049012
0.075988 0.738748 0.049889
0.105380 0.739865 0.050766
0.150329 0.740981 0.051643
0.208243 0.742097 0.052520
0.276528 0.743213 0.053397
0.352592 0.744329 0.054274
0.433841 0.745445 0.055151
0.517684 0.746561 0.056028
0.601527 0.747678 0.056905
0.682776 0.748794 0.057782
0.758840 0.749910 0.058659
0.827125 0.751026 0.059536
0.885039 0.752142 0.060413
0.929988 0.753258 0.061290
0.959380 0.754375 0.062167
0.970621 0.755491 0.063044
0.069127 0.808370 0.051962
0.080369 0.809486 0.052839
0.109761 0.810602 0.053716
0.154710 0.811719 0.054593
0.212623 0.812835 0.055470
0.280909 0.813951 0.056347
0.356972 0.815067 0.057224
0.438222 0.816183 0.058101
0.522065 0.817299 0.058978
0.605907 0.818415 0.059855
0.687157 0.819532 0.060732
0.763221 0.820648 0.061609
0.831506 0.821764 0.062486
0.889419 0.822880 0.063363
0.934369 0.823996 0.064240
0.963760 0.825112 0.065117
0.975002 0.826229 0.065994
0.073508 0.868736 0.054913
0.084749 0.869852 0.055790
0.114141 0.870969 0.056667
0.159090 0.872085 0.057544
0.217004 0.873201 0.058421
0.285289 0.874317 0.059297
0.361353 0.875433 0.060174
0.442603 0.876549 0.061051
0.526445 0.877666 0.061928
0.610288 0.878782 0.062805
0.691537 0.879898 0.063682
0.767601 0.881014 0.064559
0.835886 0.882130 0.065436
0.893800 0.883246 0.066313
0.938749 0.884362 0.067190
0.968141 0.885479 0.068067
0.979383 0.886595 0.068944
0.077888 0.916138 0.057863
0.089130 0.917254 0.058740
0.118522 0.918370 0.059617
0.163471 0.919487 0.060494
0.221385 0.920603 0.061371
0.289670 0.921719 0.062248
0.365734 0.922835 0.063125
0.446983 0.923951 0.064002
0.530826 0.925067 0.064879
0.614668 0.926183 0.065756
0.695918 0.927300 0.066633
0.771982 0.928416 0.067510
0.840267 0.929532 0.068387
0.898181 0.930648 0.069263
0.943130 0.931764 0.070140
0.972522 0.932880 0.071017
0.983763 0.933997 0.071894
0.082269 0.947983 0.060813
0.093511 0.949099 0.061690
0.122902 0.950215 0.062567
0.167852 0.951331 0.063444
0.225765 0.952447 0.064321
0.294050 0.953563 0.065198
0.370114 0.954679 0.066075
0.451364 0.955796 0.066952
0.535206 0.956912 0.067829
0.619049 0.958028 0.068706
0.700299 0.959144 0.069583
0.776362 0.960260 0.070460
0.844648 0.961376 0.071337
0.902561 0.962493 0.072214
0.947510 0.963609 0.073091
0.976902 0.964725 0.073968
0.988144 0.965841 0.074845
0.086650 0.961677 0.063763
0.097891 0.962793 0.064640
0.127283 0.963909 0.065517
0.172232 0.965025 0.066394
0.230146 0.966141 0.067271
0.298431 0.967258 0.068148
0.374495 0.968374 0.069025
0.455744 0.969490 0.069902
0.539587 0.970606 0.070779
0.623430 0.971722 0.071656
0.704679 0.972838 0.072533
0.780743 0.973954 0.073410
0.849028 0.975071 0.074287
0.906942 0.976187 0.075164
0.951891 0.977303 0.076041
0.981283 0.978419 0.076918
0.992524 0.979535 0.077795
0.017002 0.016939 0.026797
0.028244 0.018055 0.027674
0.057636 0.019171 0.028551
0.102585 0.020287 0.029428
0.160498 0.021404 0.030305
0.228784 0.022520 0.031182
0.304847 0.023636 0.032059
0.386097 0.024752 0.032936
0.469940 0.025868 0.033813
0.553782 0.026984 0.034690
0.635032 0.028101 0.035567
0.711096 0.029217 0.036444
0.779381 0.030333 0.037321
0.837294 0.031449 0.038198
0.882244 0.032565 0.039075
0.911635 0.033681 0.039952
0.922877 0.034797 0.040829
0.021383 0.030633 0.029747
0.032624 0.031749 0.030624
0.062016 0.032866 0.031501
0.106965 0.033982 0.032378
0.164879 0.035098 0.033255
0.233164 0.036214 0.034132
0.309228 0.037330 0.035009
0.390478 0.038446 0.035886
0.474320 0.039562 0.036763
0.558163 0.040679 0.037640
0.639412 0.041795 0.038517
0.715476 0.042911 0.039394
0.783761 0.044027 0.040271
0.841675 0.045143 0.041148
0.886624 0.046259 0.042025
0.916016 0.047376 0.042902
0.927258 0.048492 0.043779
0.025763 0.062478 0.032698
0.037005 0.063594 0.033575
0.066397 0.064710 0.034452
0.111346 0.065826 0.035329
0.169260 0.066942 0.036206
0.237545 0.068058 0.037083
0.313609 0.069175 0.037959
0.394858 0.070291 0.038836
0.478701 0.071407 0.039713
0.562543 0.072523 0.040590
0.643793 0.073639 0.041467
0.719857 0.074755 0.042344
0.788142 0.075872 0.043221
0.846056 0.076988 0.044098
0.891005 0.078104 0.044975
0.920397 0.079220 0.045852
0.931638 0.080336 0.046729
0.030144 0.109880 0.035648
0.041386 0.110996 0.036525
0.070777 0.112112 0.037402
0.115727 0.113228 0.038279
0.173640 0.114344 0.039156
0.241925 0.115460 0.040033
0.317989 0.116576 0.040910
0.399239 0.117693 0.041787
0.483081 0.118809 0.042664
0.566924 0.119925 0.043541
0.648174 0.121041 0.044418
0.724237 0.122157 0.045295
0.792523 0.123273 0.046172
0.850436 0.124389 0.047049
0.895385 0.125506 0.047925
0.924777 0.126622 0.048802
0.936019 0.127738 0.049679
0.034525 0.170246 0.038598
0.045766 0.171362 0.039475
0.075158 0.172478 0.040352
0.120107 0.173594 0.041229
0.178021 0.174710 0.042106
0.246306 0.175826 0.042983
0.322370 0.176943 0.043860
0.403619 0.178059 0.044737
0.487462 0.179175 0.045614
0.571305 0.180291 0.046491
0.652554 0.181407 0.047368
0.728618 0.182523 0.048245
0.796903 0.183640 0.049122
0.854817 0.184756 0.049999
0.899766 0.185872 0.050876
0.929158 0.186988 0.051753
0.940399 0.188104 0.052630
0.038905 0.240984 0.041548
0.050147 0.242100 0.042425
0.079539 0.243216 0.043302
0.124488 0.244332 0.044179
0.182401 0.245448 0.045056
0.250687 0.246564 0.045933
0.326750 0.247680 0.046810
0.408000 0.248797 0.047687
0.491843 0.249913 0.048564
0.575685 0.251029 0.049441
0.656935 0.252145 0.050318
0.732999 0.253261 0.051195
0.801284 0.254377 0.052072
0.859197 0.255494 0.052949
0.904147 0.256610 0.053826
0.933538 0.257726 0.054703
0.944780 0.258842 0.055580
0.043286 0.319500 0.044498
0.054527 0.320616 0.045375
0.083919 0.321732 0.046252
0.128868 0.322848 0.047129
0.186782 0.323965 0.048006
0.255067 0.325081 0.048883
0.331131 0.326197 0.049760
0.412381 0.327313 0.050637
0.496223 0.328429 0.051514
0.580066 0.329545 0.052391
0.661315 0.330662 0.053268
0.737379 0.331778 0.054145
0.805664 0.332894 0.055022
0.863578 0.334010 0.055899
0.908527 0.335126 0.056776
0.937919 0.336242 0.057653
0.949161 0.337358 0.058530
0.047666 0.403202 0.047449
0.058908 0.404318 0.048326
0.088300 0.405435 0.049203
0.133249 0.406551 0.050080
0.191163 0.407667 0.050957
0.259448 0.408783 0.051834
0.335512 0.409899 0.052710
0.416761 0.411015 0.053587
0.500604 0.412131 0.054464
0.584446 0.413248 0.055341
0.665696 0.414364 0.056218
0.741760 0.415480 0.057095
0.810045 0.416596 0.057972
0.867959 0.417712 0.058849
0.912908 0.418828 0.059726
0.942300 0.419945 0.060603
0.953541 0.421061 0.061480
0.052047 0.489497 0.050399
0.063289 0.490614 0.051276
0.092680 0.491730 0.052153
0.137630 0.492846 0.053030
0.195543 0.493962 0.053907
0.263828 0.495078 0.054784
0.339892 0.496194 0.055661
0.421142 0.497310 0.056538
0.504984 0.498427 0.057415
0.588827 0.499543 0.058292
0.670077 0.500659 0.059169
0.746140 0.501775 0.060046
0.814426 0.502891 0.060923
0.872339 0.504007 0.061800
0.917288 0.505124 0.062676
0.946680 0.506240 0.063553
0.957922 0.507356 0.064430
0.056428 0.575793 0.053349
0.067669 0.576909 0.054226
0.097061 0.578025 0.055103
0.142010 0.579141 0.055980
0.199924 0.580257 0.056857
0.268209 0.581373 0.057734
0.344273 0.582490 0.058611
0.425522 0.583606 0.059488
0.509365 0.584722 0.060365
0.593208 0.585838 0.061242
0.674457 0.586954 0.062119
0.750521 0.588070 0.062996
0.818806 0.589186 0.063873
0.876720 0.590303 0.064750
0.921669 0.591419 0.065627
0.951061 0.592535 0.066504
0.962302 0.593651 0.067381
0.060808 0.659495 0.056299
0.072050 0.660611 0.057176
0.101442 0.661727 0.058053
0.146391 0.662843 0.058930
0.204304 0.663959 0.059807
0.272590 0.665076 0.060684
0.348653 0.666192 0.061561
0.429903 0.667308 0.062438
0.513746 0.668424 0.063315
0.597588 0.669540 0.064192
0.678838 0.670656 0.065069
0.754902 0.671773 0.065946
0.823187 0.672889 0.066823
0.881100 0.674005 0.067700
0.926050 0.675121 0.068577
0.955441 0.676237 0.069454
0.966683 0.677353 0.070331
0.065189 0.738011 0.059249
0.076430 0.739127 0.060126
0.105822 0.740244 0.061003
0.150771 0.741360 0.061880
0.208685 0.742476 0.062757
0.276970 0.743592 0.063634
0.353034 0.744708 0.064511
0.434284 0.745824 0.065388
0.518126 0.746941 0.066265
0.601969 0.748057 0.067142
0.683218 0.749173 0.068019
0.759282 0.750289 0.068896
0.827567 0.751405 0.069773
0.885481 0.752521 0.070650
0.930430 0.753637 0.071527
0.959822 0.754754 0.072404
0.971064 0.755870 0.073281
0.069569 0.808749 0.062200
0.080811 0.809865 0.063077
0.110203 0.810981 0.063954
0.155152 0.812098 0.064831
0.213066 0.813214 0.065708
0.281351 0.814330 0.066585
0.357415 0.815446 0.067461
0.438664 0.816562 0.068338
0.522507 0.817678 0.069215
0.606349 0.818795 0.070092
0.687599 0.819911 0.070969
0.763663 0.821027 0.071846
0.831948 0.822143 0.072723
0.889862 0.823259 0.073600
0.934811 0.824375 0.074477
0.964203 0.825491 0.075354
0.975444 0.826608 0.076231
0.073950 0.869115 0.065150
0.085192 0.870232 0.066027
0.114583 0.871348 0.066904
0.159533 0.872464 0.067781
0.217446 0.873580 0.068658
0.285731 0.874696 0.069535
0.361795 0.875812 0.070412
0.443045 0.876928 0.071289
0.526887 0.878045 0.072166
0.610730 0.879161 0.073043
0.691980 0.880277 0.073920
0.768043 0.881393 0.074797
0.836329 0.882509 0.075674
0.894242 0.883625 0.076551
0.939191 0.884741 0.077427
0.968583 0.885858 0.078304
0.979825 0.886974 0.079181
0.078331 0.916517 0.068100
0.089572 0.917633 0.068977
0.118964 0.918749 0.069854
0.163913 0.919866 0.070731
0.221827 0.920982 0.071608
0.290112 0.922098 0.072485
0.366176 0.923214 0.073362
0.447425 0.924330 0.074239
0.531268 0.925446 0.075116
0.615111 0.926563 0.075993
0.696360 0.927679 0.076870
0.772424 0.928795 0.077747
0.840709 0.929911 0.078624
0.898623 0.931027 0.079501
0.943572 0.932143 0.080378
0.972964 0.933259 0.081255
0.984205 0.934376 0.082132
0.082711 0.948362 0.071050
0.093953 0.949478 0.071927
0.123345 0.950594 0.072804
0.168294 0.951710 0.073681
0.226207 0.952826 0.074558
0.294493 0.953942 0.075435
0.370556 0.955059 0.076312
0.451806 0.956175 0.077189
0.535649 0.957291 0.078066
0.619491 0.958407 0.078943
0.700741 0.959523 0.079820
0.776805 0.960639 0.080697
0.845090 0.961755 0.081574
0.903003 0.962872 0.082451
0.947953 0.963988 0.083328
0.977344 0.965104 0.084205
0.988586 0.966220 0.085082
0.087092 0.962056 0.074000
0.098333 0.963172 0.074877
0.127725 0.964288 0.075754
0.172674 0.965404 0.076631
0.230588 0.966520 0.077508
0.298873 0.967637 0.078385
0.374937 0.968753 0.079262
0.456187 0.969869 0.080139
0.540029 0.970985 0.081016
0.623872 0.972101 0.081893
0.705121 0.973217 0.082770
0.781185 0.974333 0.083647
0.849470 0.975450 0.084524
0.907384 0.976566 0.085401
0.952333 0.977682 0.086278
0.981725 0.978798 0.087155
0.992967 0.979914 0.088032
0.017444 0.017318 0.055185
0.028686 0.018434 0.056062
0.058078 0.019550 0.056939
0.103027 0.020667 0.057816
0.160941 0.021783 0.058693
0.229226 0.022899 0.059570
0.305290 0.024015 0.060447
0.386539 0.025131 0.061324
0.470382 0.026247 0.062201
0.554224 0.027363 0.063077
0.635474 0.028480 0.063954
0.711538 0.029596 0.064831
0.779823 0.030712 0.065708
0.837737 0.031828 0.066585
0.882686 0.032944 0.067462
0.912078 0.034060 0.068339
0.923319 0.035176 0.069216
0.021825 0.031012 0.058135
0.033067 0.032128 0.059012
0.062458 0.033245 0.059889
0.107408 0.034361 0.060766
0.165321 0.035477 0.061643
0.233606 0.036593 0.062520
0.309670 0.037709 0.063397
0.390920 0.038825 0.064274
0.474762 0.039942 0.065151
0.558605 0.041058 0.066028
0.639855 0.042174 0.066905
0.715918 0.043290 0.067782
0.784204 0.044406 0.068659
0.842117 0.045522 0.069536
0.887066 0.046638 0.070413
0.916458 0.047755 0.071290
0.927700 0.048871 0.072167
0.026206 0.062857 0.061085
0.037447 0.063973 0.061962
0.066839 0.065089 0.062839
0.111788 0.066205 0.063716
0.169702 0.067321 0.064593
0.237987 0.068438 0.065470
0.314051 0.069554 0.066347
0.395301 0.070670 0.067224
0.479143 0.071786 0.068101
0.562986 0.072902 0.068978
0.644235 0.074018 0.069855
0.720299 0.075134 0.070732
0.788584 0.076251 0.071609
0.846498 0.077367 0.072486
0.891447 0.078483 0.073363
0.920839 0.079599 0.074240
0.932080 0.080715 0.075117
0.030586 0.110259 0.064035
0.041828 0.111375 0.064912
0.071220 0.112491 0.065789
0.116169 0.113607 0.066666
0.174082 0.114723 0.067543
0.242368 0.115839 0.068420
0.318431 0.116955 0.069297
0.399681 0.118072 0.070174
0.483524 0.119188 0.071051
0.567366 0.120304 0.071928
0.648616 0.121420 0.072805
0.724680 0.122536 0.073682
0.792965 0.123652 0.074559
0.850878 0.124769 0.075436
0.895828 0.125885 0.076313
0.925219 0.127001 0.077190
0.936461 0.128117 0.078067
0.034967 0.170625 0.066986
0.046208 0.171741 0.067862
0.075600 0.172857 0.068739
0.120549 0.173973 0.069616
0.178463 0.175089 0.070493
0.246748 0.176206 0.071370
0.322812 0.177322 0.072247
0.404062 0.178438 0.073124
0.487904 0.179554 0.074001
0.571747 0.180670 0.074878
0.652996 0.181786 0.075755
0.729060 0.182902 0.076632
0.797345 0.184019 0.077509
0.855259 0.185135 0.078386
0.900208 0.186251 0.079263
0.929600 0.187367 0.080140
0.940842 0.188483 0.081017
0.039347 0.241363 0.069936
0.050589 0.242479 0.070813
0.079981 0.243595 0.071690
0.124930 0.244711 0.072567
0.182844 0.245827 0.073444
0.251129 0.246943 0.074321
0.327193 0.248060 0.075198
0.408442 0.249176 0.076075
0.492285 0.250292 0.076952
0.576127 0.251408 0.077828
0.657377 0.252524 0.078705
0.733441 0.253640 0.079582
0.801726 0.254756 0.080459
0.859640 0.255873 0.081336
0.904589 0.256989 0.082213
0.933981 0.258105 0.083090
0.945222 0.259221 0.083967
0.043728 0.319879 0.072886
0.054970 0.320995 0.073763
0.084361 0.322111 0.074640
0.129311 0.323228 0.075517
0.187224 0.324344 0.076394
0.255509 0.325460 0.077271
0.331573 0.326576 0.078148
0.412823 0.327692 0.079025
0.496665 0.328808 0.079902
0.580508 0.329924 0.080779
0.661758 0.331041 0.081656
0.737821 0.332157 0.082533
0.806107 0.333273 0.083410
0.864020 0.334389 0.084287
0.908969 0.335505 0.085164
0.938361 0.336621 0.086041
0.949603 0.337737 0.086918
0.048109 0.403581 0.075836
0.059350 0.404697 0.076713
0.088742 0.405814 0.077590
0.133691 0.406930 0.078467
0.191605 0.408046 0.079344
0.259890 0.409162 0.080221
0.335954 0.410278 0.081098
0.417204 0.411394 0.081975
0.501046 0.412511 0.082852
0.584889 0.413627 0.083729
0.666138 0.414743 0.084606
0.742202 0.415859 0.085483
0.810487 0.416975 0.086360
0.868401 0.418091 0.087237
0.913350 0.419207 0.088114
0.942742 0.420324 0.088991
0.953983 0.421440 0.089868
0.052489 0.489876 0.078786
0.063731 0.490993 0.079663
0.093123 0.492109 0.080540
0.138072 0.493225 0.081417
0.195985 0.494341 0.082294
0.264271 0.495457 0.083171
0.340334 0.496573 0.084048
0.421584 0.497690 0.084925
0.505427 0.498806 0.085802
0.589269 0.499922 0.086679
0.670519 0.501038 0.087556
0.746583 0.502154 0.088433
0.814868 0.503270 0.089310
0.872781 0.504386 0.090187
0.917731 0.505503 0.091064
0.947122 0.506619 0.091941
0.958364 0.507735 0.092818
0.056870 0.576172 0.081737
0.068111 0.577288 0.082613
0.097503 0.578404 0.083490
0.142452 0.579520 0.084367
0.200366 0.580636 0.085244
0.268651 0.581752 0.086121
0.344715 0.582869 0.086998
0.425965 0.583985 0.087875
0.509807 0.585101 0.088752
0.593650 0.586217 0.089629
0.674899 0.587333 0.090506
0.750963 0.588449 0.091383
0.819248 0.589565 0.092260
0.877162 0.590682 0.093137
0.922111 0.591798 0.094014
0.951503 0.592914 0.094891
0.962745 0.594030 0.095768
0.061250 0.659874 0.084687
0.072492 0.660990 0.085564
0.101884 0.662106 0.086441
0.146833 0.663222 0.087318
0.204747 0.664339 0.088195
0.273032 0.665455 0.089072
0.349096 0.666571 0.089949
0.430345 0.667687 0.090826
0.514188 0.668803 0.091703
0.598030 0.669919 0.092579
0.679280 0.671035 0.093456
0.755344 0.672152 0.094333
0.823629 0.673268 0.095210
0.881543 0.674384 0.096087
0.926492 0.675500 0.096964
0.955884 0.676616 0.097841
0.967125 0.677732 0.098718
0.065631 0.738390 0.087637
0.076873 0.739507 0.088514
0.106264 0.740623 0.089391
0.151214 0.741739 0.090268
0.209127 0.742855 0.091145
0.277412 0.743971 0.092022
0.353476 0.745087 0.092899
0.434726 0.746203 0.093776
0.518568 0.747320 0.094653
0.602411 0.748436 0.095530
0.683661 0.749552 0.096407
0.759724 0.750668 0.097284
0.828010 0.751784 0.098161
0.885923 0.752900 0.099038
0.930872 0.754016 0.099915
0.960264 0.755133 0.100792
0.971506 0.756249 0.101669
0.070012 0.809128 0.090587
0.081253 0.810244 0.091464
0.110645 0.811361 0.092341
0.155594 0.812477 0.093218
0.213508 0.813593 0.094095
0.281793 0.814709 0.094972
0.357857 0.815825 0.095849
0.439107 0.816941 0.096726
0.522949 0.818057 0.097603
0.606792 0.819174 0.098480
0.688041 0.820290 0.099357
0.764105 0.821406 0.100234
0.832390 0.822522 0.101111
0.890304 0.823638 0.101988
0.935253 0.824754 0.102865
0.964645 0.825870 0.103742
0.975886 0.826987 0.104619
0.074392 0.869494 0.093537
0.085634 0.870611 0.094414
0.115026 0.871727 0.095291
0.159975 0.872843 0.096168
0.217888 0.873959 0.097045
0.286174 0.875075 0.097922
0.362237 0.876191 0.098799
0.443487 0.877307 0.099676
0.527330 0.878424 0.100553
0.611172 0.879540 0.101430
0.692422 0.880656 0.102307
0.768486 0.881772 0.103184
0.836771 0.882888 0.104061
0.894684 0.884004 0.104938
0.939634 0.885121 0.105815
0.969025 0.886237 0.106692
0.980267 0.887353 0.107569
0.078773 0.916896 0.096488
0.090014 0.918012 0.097364
0.119406 0.919129 0.098241
0.164355 0.920245 0.099118
0.222269 0.921361 0.099995
0.290554 0.922477 0.100872
0.366618 0.923593 0.101749
0.447868 0.924709 0.102626
0.531710 0.925825 0.103503
0.615553 0.926942 0.104380
0.696802 0.928058 0.105257
0.772866 0.929174 0.106134
0.841151 0.930290 0.107011
0.899065 0.931406 0.107888
0.944014 0.932522 0.108765
0.973406 0.933638 0.109642
0.984648 0.934755 0.110519
0.083153 0.948741 0.099438
0.094395 0.949857 0.100315
0.123787 0.950973 0.101192
0.168736 0.952089 0.102069
0.226650 0.953205 0.102946
0.294935 0.954321 0.103823
0.370999 0.955438 0.104700
0.452248 0.956554 0.105577
0.536091 0.957670 0.106454
0.619933 0.958786 0.107330
0.701183 0.959902 0.108207
0.777247 0.961018 0.109084
0.845532 0.962134 0.109961
0.903446 0.963251 0.110838
0.948395 0.964367 0.111715
0.977787 0.965483 0.112592
0.989028 0.966599 0.113469
0.087534 0.962435 0.102388
0.098776 0.963551 0.103265
0.128167 0.964667 0.104142
0.173117 0.965783 0.105019
0.231030 0.966899 0.105896
0.299315 0.968016 0.106773
0.375379 0.969132 0.107650
0.456629 0.970248 0.108527
0.540471 0.971364 0.109404
0.624314 0.972480 0.110281
0.705564 0.973596 0.111158
0.781627 0.974713 0.112035
0.849913 0.975829 0.112912
0.907826 0.976945 0.113789
0.952775 0.978061 0.114666
0.982167 0.979177 0.115543
0.993409 0.980293 0.116420
0.017887 0.017697 0.099130
0.029128 0.018813 0.100007
0.058520 0.019929 0.100883
0.103469 0.021046 0.101760
0.161383 0.022162 0.102637
0.229668 0.023278 0.103514
0.305732 0.024394 0.104391
0.386982 0.025510 0.105268
0.470824 0.026626 0.106145
0.554667 0.027742 0.107022
0.635916 0.028859 0.107899
0.711980 0.029975 0.108776
0.780265 0.031091 0.109653
0.838179 0.032207 0.110530
0.883128 0.033323 0.111407
0.912520 0.034439 0.112284
0.923761 0.035556 0.113161
0.022267 0.031391 0.102080
