tests/fixtures/media-resource-catalog-v1-production/assets/editor-luts/soft-cinema-17.cube
TITLE "Visual Multimedia Soft Cinema"
LUT_3D_SIZE 5
DOMAIN_MIN 0.0 0.0 0.0
DOMAIN_MAX 1.0 1.0 1.0
0.016560 0.016560 0.016560
0.160056 0.021025 0.020068
0.469497 0.025489 0.023576
0.778939 0.029954 0.027084
0.922435 0.034418 0.030592
0.034082 0.169867 0.028361
0.177579 0.174331 0.031869
0.487020 0.178796 0.035377
0.796461 0.183260 0.038884
0.939957 0.187725 0.042392
0.051605 0.489118 0.040162
0.195101 0.493583 0.043670
0.504542 0.498048 0.047177
0.813983 0.502512 0.050685
0.957480 0.506977 0.054193
0.069127 0.808370 0.051962
0.212623 0.812835 0.055470
0.522065 0.817299 0.058978
0.831506 0.821764 0.062486
0.975002 0.826229 0.065994
0.086650 0.961677 0.063763
0.230146 0.966141 0.067271
0.539587 0.970606 0.070779
0.849028 0.975071 0.074287
0.992524 0.979535 0.077795
0.018329 0.018076 0.156039
0.161825 0.022541 0.159547
0.471266 0.027005 0.163055
0.780707 0.031470 0.166563
0.924204 0.035935 0.170070
0.035851 0.171383 0.167840
0.179347 0.175847 0.171347
0.488789 0.180312 0.174855
0.798230 0.184777 0.178363
0.941726 0.189241 0.181871
0.053374 0.490635 0.179640
0.196870 0.495099 0.183148
0.506311 0.499564 0.186656
0.815752 0.504028 0.190164
0.959249 0.508493 0.193672
0.070896 0.809886 0.191441
0.214392 0.814351 0.194949
0.523834 0.818815 0.198457
0.833275 0.823280 0.201965
0.976771 0.827745 0.205473
0.088418 0.963193 0.203242
0.231915 0.967658 0.206750
0.541356 0.972122 0.210258
0.850797 0.976587 0.213766
0.994293 0.981051 0.217274
0.020098 0.019592 0.461463
0.163594 0.024057 0.464971
0.473035 0.028522 0.468478
0.782476 0.032986 0.471986
0.925973 0.037451 0.475494
0.037620 0.172899 0.473263
0.181116 0.177364 0.476771
0.490558 0.181828 0.480279
0.799999 0.186293 0.483787
0.943495 0.190757 0.487295
0.055143 0.492151 0.485064
0.198639 0.496615 0.488572
0.508080 0.501080 0.492080
0.817521 0.505545 0.495588
0.961017 0.510009 0.499096
0.072665 0.811403 0.496865
0.216161 0.815867 0.500373
0.525602 0.820332 0.503881
0.835044 0.824796 0.507389
0.978540 0.829261 0.510897
0.090187 0.964709 0.508666
0.233684 0.969174 0.512174
0.543125 0.973638 0.515682
0.852566 0.978103 0.519189
0.996062 0.982568 0.522697
0.021867 0.021109 0.766886
0.165363 0.025573 0.770394
0.474804 0.030038 0.773902
0.784245 0.034502 0.777410
0.927741 0.038967 0.780918
0.039389 0.174415 0.778687
0.182885 0.178880 0.782195
0.492327 0.183344 0.785703
0.801768 0.187809 0.789211
0.945264 0.192274 0.792719
0.056911 0.493667 0.790488
0.200408 0.498132 0.793996
0.509849 0.502596 0.797504
0.819290 0.507061 0.801012
0.962786 0.511525 0.804520
0.074434 0.812919 0.802289
0.217930 0.817383 0.805797
0.527371 0.821848 0.809305
0.836812 0.826313 0.812813
0.980309 0.830777 0.816320
0.091956 0.966225 0.814090
0.235453 0.970690 0.817597
0.544894 0.975155 0.821105
0.854335 0.979619 0.824613
0.997831 0.984084 0.828121
0.023636 0.022625 0.906365
0.167132 0.027089 0.909873
0.476573 0.031554 0.913381
0.786014 0.036019 0.916889
0.929510 0.040483 0.920397
0.041158 0.175931 0.918166
0.184654 0.180396 0.921674
0.494095 0.184861 0.925182
0.803537 0.189325 0.928690
0.947033 0.193790 0.932198
0.058680 0.495183 0.929967
0.202177 0.499648 0.933475
0.511618 0.504112 0.936983
0.821059 0.508577 0.940491
0.964555 0.513042 0.943998
0.076203 0.814435 0.941768
0.219699 0.818900 0.945275
0.529140 0.823364 0.948783
0.838581 0.827829 0.952291
0.982078 0.832293 0.955799
0.093725 0.967742 0.953568
0.237221 0.972206 0.957076
0.546663 0.976671 0.960584
0.856104 0.981135 0.964092
0.999600 0.985600 0.967600
